;FLAVOR:Marlin
;TIME:260
;Filament used: 0.104047m
;Layer height: 0.2
;MINX:82.734
;MINY:94.7
;MINZ:0.2
;MAXX:137.267
;MAXY:125.3
;MAXZ:5.8
;Generated with Cura_SteamEngine 4.4.0
M82 ;absolute extrusion mode

;
;********************************************
;***********BEGIN START CODE*****************
;********************************************
;

G28

M104 S195 ;Start heating extruder
M140 S50 ;Start heating bed

;M201 X500.00 Y500.00 Z100.00 E5000.00 ;Setup machine max acceleration
;M203 X500.00 Y500.00 Z10.00 E50.00 ;Setup machine max feedrate
;M204 P500.00 R1000.00 T500.00 ;Setup Print/Retract/Travel acceleration
;M205 X8.00 Y8.00 Z0.40 E5.00 ;Setup Jerk
M220 S100 ;Reset Feedrate
M221 S100 ;Reset Flowrate

M190 S50 ;Wait for bed to reach temp before proceeding

G28 Z;Home

M109 S195 ;Wait for extruder to reach temp before proceeding
M190 S50 ;Wait for bed to reach temp before proceeding

G92 E0 ;Reset Extruder
G1 Z2.0 F3000 ;Move Z Axis up
G1 X2.0 Y2 Z0.28 F5000.0 ;Move to start position
G1 X2.0 Y218.0 Z0.28 F1500.0 E15 ;Draw the first line
G1 X3.0 Y218.0 Z0.28 F5000.0 ;Move to side 1mm
G1 X3.0 Y2 Z0.28 F1500.0 E30 ;Draw the second line
G92 E0 ;Reset Extruder
G1 Z2.0 F3000 ;Move Z Axis up

;
;********************************************
;***********END of START CODE*****************
;********************************************
;
G92 E0
G92 E0
G1 F1500 E-0.5
;LAYER_COUNT:28
;LAYER:0
M107
G1 F300 Z0.4
G0 F7500 X88.264 Y98.218 Z0.4
;TYPE:SKIRT
G1 F300 Z0.2
G1 F1500 E0
G1 X88.542 Y97.994 E0.01069
G1 X89.458 Y97.326 E0.04462
G1 X89.774 Y97.118 E0.05595
G1 X90.972 Y96.426 E0.09736
G1 X91.293 Y96.265 E0.10811
G1 X92.312 Y95.813 E0.14148
G1 X92.652 Y95.681 E0.1524
G1 X93.842 Y95.29 E0.18989
G1 X94.16 Y95.204 E0.19975
G1 X95.281 Y94.959 E0.2341
G1 X95.661 Y94.895 E0.24564
G1 X97.002 Y94.747 E0.28602
G1 X97.478 Y94.722 E0.30029
G1 X97.952 Y94.707 E0.31449
G1 X98.439 Y94.701 E0.32907
G1 X98.586 Y94.7 E0.33347
G1 X121.362 Y94.703 E1.01525
G1 X121.523 Y94.704 E1.02007
G1 X122.321 Y94.715 E1.04396
G1 X123.226 Y94.762 E1.07108
G1 X123.545 Y94.791 E1.08067
G1 X124.485 Y94.915 E1.10905
G1 X124.734 Y94.958 E1.11662
G1 X125.803 Y95.194 E1.14939
G1 X126.151 Y95.288 E1.16018
G1 X127.287 Y95.658 E1.19594
G1 X127.614 Y95.783 E1.20642
G1 X128.717 Y96.27 E1.24251
G1 X129.04 Y96.433 E1.25334
G1 X130.152 Y97.072 E1.29173
G1 X130.483 Y97.287 E1.30355
G1 X131.413 Y97.958 E1.33788
G1 X131.66 Y98.155 E1.34733
G1 X132.585 Y98.976 E1.38436
G1 X132.864 Y99.251 E1.39608
G1 X133.763 Y100.244 E1.43618
G1 X133.989 Y100.524 E1.44695
G1 X134.661 Y101.443 E1.48103
G1 X134.856 Y101.739 E1.49164
G1 X135.471 Y102.787 E1.52801
G1 X135.627 Y103.087 E1.53814
G1 X136.128 Y104.184 E1.57424
G1 X136.277 Y104.56 E1.58634
G1 X136.688 Y105.79 E1.62516
G1 X136.777 Y106.115 E1.63525
G1 X137.035 Y107.287 E1.67117
G1 X137.097 Y107.658 E1.68243
G1 X137.24 Y108.955 E1.72149
G1 X137.261 Y109.337 E1.73294
G1 X137.267 Y110.519 E1.76833
G1 X137.25 Y110.894 E1.77956
G1 X137.126 Y112.147 E1.81725
G1 X137.069 Y112.519 E1.82852
G1 X136.803 Y113.785 E1.86724
G1 X136.709 Y114.136 E1.87812
G1 X136.323 Y115.323 E1.91548
G1 X136.194 Y115.658 E1.92623
G1 X135.704 Y116.759 E1.9623
G1 X135.537 Y117.088 E1.97335
G1 X134.901 Y118.19 E2.01144
G1 X134.697 Y118.503 E2.02262
G1 X134.012 Y119.448 E2.05756
G1 X133.8 Y119.712 E2.06769
G1 X133.007 Y120.603 E2.1034
G1 X132.749 Y120.865 E2.1144
G1 X131.759 Y121.763 E2.15441
G1 X131.472 Y121.995 E2.16546
G1 X130.527 Y122.684 E2.20047
G1 X130.21 Y122.892 E2.21182
G1 X129.04 Y123.567 E2.25225
G1 X128.72 Y123.728 E2.26298
G1 X127.681 Y124.19 E2.29701
G1 X127.343 Y124.321 E2.30786
G1 X126.199 Y124.698 E2.34392
G1 X125.878 Y124.786 E2.35388
G1 X124.693 Y125.046 E2.3902
G1 X124.314 Y125.109 E2.4017
G1 X122.998 Y125.253 E2.44133
G1 X122.522 Y125.278 E2.4556
G1 X122.047 Y125.293 E2.46982
G1 X121.557 Y125.299 E2.48449
G1 X121.413 Y125.3 E2.4888
G1 X98.707 Y125.3 E3.16849
G1 X98.533 Y125.299 E3.17369
G1 X97.718 Y125.287 E3.19809
G1 X97.117 Y125.263 E3.2161
G1 X96.874 Y125.247 E3.22339
G1 X95.841 Y125.133 E3.2545
G1 X95.467 Y125.075 E3.26583
G1 X94.237 Y124.816 E3.30345
G1 X93.888 Y124.723 E3.31426
G1 X92.655 Y124.321 E3.35309
G1 X92.315 Y124.189 E3.364
G1 X91.269 Y123.723 E3.39828
G1 X90.954 Y123.564 E3.40884
G1 X89.817 Y122.908 E3.44814
G1 X89.491 Y122.695 E3.45979
G1 X88.552 Y122.014 E3.49452
G1 X88.292 Y121.805 E3.5045
G1 X87.373 Y120.983 E3.54141
G1 X87.106 Y120.718 E3.55267
G1 X86.245 Y119.766 E3.59109
G1 X86.016 Y119.483 E3.60199
G1 X85.327 Y118.54 E3.63695
G1 X85.122 Y118.228 E3.64813
G1 X84.451 Y117.067 E3.68827
G1 X84.297 Y116.762 E3.69849
G1 X83.842 Y115.744 E3.73187
G1 X83.705 Y115.394 E3.74312
G1 X83.306 Y114.186 E3.78121
G1 X83.218 Y113.862 E3.79126
G1 X82.967 Y112.718 E3.82631
G1 X82.901 Y112.324 E3.83827
G1 X82.754 Y110.963 E3.87925
G1 X82.736 Y110.602 E3.89007
G1 X82.734 Y109.467 E3.92405
G1 X82.752 Y109.079 E3.93567
G1 X82.882 Y107.796 E3.97427
G1 X82.939 Y107.433 E3.98527
G1 X83.2 Y106.2 E4.023
G1 X83.293 Y105.854 E4.03373
G1 X83.68 Y104.67 E4.07101
G1 X83.81 Y104.333 E4.08182
G1 X84.297 Y103.239 E4.11767
G1 X84.463 Y102.912 E4.12865
G1 X85.105 Y101.801 E4.16706
G1 X85.312 Y101.484 E4.17839
G1 X86.002 Y100.535 E4.21351
G1 X86.213 Y100.273 E4.22358
G1 X87.012 Y99.377 E4.25952
G1 X87.277 Y99.109 E4.2708
G1 X87.67 Y98.754 E4.28665
G0 F1350 X88.264 Y98.218
G0 F7500 X88.515 Y98.529
G1 F1500 X88.793 Y98.305 E4.29734
G1 X89.678 Y97.66 E4.33012
G1 X89.994 Y97.452 E4.34145
G1 X91.151 Y96.784 E4.38144
G1 X91.472 Y96.623 E4.39219
G1 X92.457 Y96.186 E4.42445
G1 X92.797 Y96.054 E4.43536
G1 X93.947 Y95.676 E4.4716
G1 X94.265 Y95.59 E4.48146
G1 X95.348 Y95.353 E4.51465
G1 X95.728 Y95.289 E4.52618
G1 X97.023 Y95.147 E4.56518
G1 X97.499 Y95.122 E4.57945
G1 X97.957 Y95.107 E4.59316
G1 X98.444 Y95.101 E4.60774
G1 X98.586 Y95.1 E4.61199
G1 X121.362 Y95.103 E5.29377
G1 X121.517 Y95.104 E5.29841
G1 X122.315 Y95.115 E5.3223
G1 X123.19 Y95.161 E5.34853
G1 X123.509 Y95.19 E5.35812
G1 X124.417 Y95.309 E5.38553
G1 X124.666 Y95.352 E5.3931
G1 X125.699 Y95.58 E5.42476
G1 X126.047 Y95.674 E5.43555
G1 X127.145 Y96.031 E5.47011
G1 X127.472 Y96.156 E5.48059
G1 X128.537 Y96.628 E5.51546
G1 X128.86 Y96.791 E5.52629
G1 X129.934 Y97.408 E5.56337
G1 X130.265 Y97.623 E5.57519
G1 X131.163 Y98.271 E5.60833
G1 X131.41 Y98.468 E5.61779
G1 X132.305 Y99.261 E5.65359
G1 X132.584 Y99.536 E5.66531
G1 X133.452 Y100.495 E5.70403
G1 X133.678 Y100.775 E5.7148
G1 X134.327 Y101.663 E5.74773
G1 X134.522 Y101.959 E5.75834
G1 X135.116 Y102.972 E5.79349
G1 X135.272 Y103.272 E5.80361
G1 X135.756 Y104.331 E5.83847
G1 X135.905 Y104.707 E5.85057
G1 X136.302 Y105.896 E5.8881
G1 X136.391 Y106.221 E5.89818
G1 X136.64 Y107.353 E5.93288
G1 X136.702 Y107.724 E5.94414
G1 X136.841 Y108.977 E5.98187
G1 X136.862 Y109.359 E5.99333
G1 X136.867 Y110.501 E6.02751
G1 X136.85 Y110.876 E6.03875
G1 X136.73 Y112.087 E6.07518
G1 X136.673 Y112.459 E6.08644
G1 X136.417 Y113.681 E6.12382
G1 X136.323 Y114.032 E6.13469
G1 X135.95 Y115.18 E6.17083
G1 X135.821 Y115.515 E6.18157
G1 X135.347 Y116.578 E6.21641
G1 X135.18 Y116.907 E6.22746
G1 X134.566 Y117.972 E6.26425
G1 X134.362 Y118.285 E6.27544
G1 X133.7 Y119.198 E6.3092
G1 X133.488 Y119.462 E6.31933
G1 X132.722 Y120.323 E6.35383
G1 X132.464 Y120.585 E6.36484
G1 X131.508 Y121.452 E6.40347
G1 X131.221 Y121.684 E6.41451
G1 X130.308 Y122.349 E6.44833
G1 X129.991 Y122.557 E6.45968
G1 X128.861 Y123.21 E6.49874
G1 X128.541 Y123.371 E6.50947
G1 X127.537 Y123.817 E6.54235
G1 X127.199 Y123.948 E6.5532
G1 X126.093 Y124.312 E6.58806
G1 X125.772 Y124.4 E6.59802
G1 X124.627 Y124.652 E6.63311
G1 X124.248 Y124.715 E6.64462
G1 X122.977 Y124.853 E6.68289
G1 X122.501 Y124.878 E6.69715
G1 X122.043 Y124.893 E6.71087
G1 X121.553 Y124.899 E6.72554
G1 X121.413 Y124.9 E6.72973
G1 X98.707 Y124.9 E7.40941
G1 X98.539 Y124.899 E7.41444
G1 X97.724 Y124.887 E7.43884
G1 X97.143 Y124.863 E7.45625
G1 X96.9 Y124.847 E7.46354
G1 X95.902 Y124.737 E7.49359
G1 X95.528 Y124.679 E7.50492
G1 X94.34 Y124.43 E7.54126
G1 X93.991 Y124.337 E7.55207
G1 X92.8 Y123.948 E7.58957
G1 X92.46 Y123.816 E7.60049
G1 X91.449 Y123.366 E7.63362
G1 X91.134 Y123.207 E7.64418
G1 X90.036 Y122.574 E7.68212
G1 X89.71 Y122.361 E7.69378
G1 X88.803 Y121.702 E7.72734
G1 X88.543 Y121.493 E7.73732
G1 X87.654 Y120.699 E7.773
G1 X87.387 Y120.434 E7.78426
G1 X86.556 Y119.514 E7.82137
G1 X86.327 Y119.231 E7.83227
G1 X85.662 Y118.32 E7.86603
G1 X85.457 Y118.008 E7.87721
G1 X84.808 Y116.886 E7.91601
G1 X84.654 Y116.581 E7.92624
G1 X84.214 Y115.598 E7.95847
G1 X84.077 Y115.248 E7.96972
G1 X83.692 Y114.081 E8.00651
G1 X83.604 Y113.757 E8.01656
G1 X83.362 Y112.652 E8.05042
G1 X83.296 Y112.258 E8.06238
G1 X83.153 Y110.943 E8.10197
G1 X83.135 Y110.582 E8.11279
G1 X83.133 Y109.486 E8.1456
G1 X83.151 Y109.098 E8.15723
G1 X83.277 Y107.858 E8.19454
G1 X83.334 Y107.495 E8.20554
G1 X83.587 Y106.304 E8.24198
G1 X83.68 Y105.958 E8.25271
G1 X84.053 Y104.814 E8.28873
G1 X84.183 Y104.477 E8.29954
G1 X84.654 Y103.42 E8.33418
G1 X84.82 Y103.093 E8.34516
G1 X85.44 Y102.02 E8.38225
G1 X85.647 Y101.703 E8.39359
G1 X86.313 Y100.786 E8.42751
G1 X86.524 Y100.524 E8.43758
G1 X87.297 Y99.658 E8.47233
G1 X87.562 Y99.39 E8.48361
G1 X87.922 Y99.065 E8.49813
G0 F1350 X88.515 Y98.529
G0 F7500 X88.766 Y98.841
G1 F1500 X89.044 Y98.617 E8.50882
G1 X89.898 Y97.994 E8.54046
G1 X90.214 Y97.786 E8.55178
G1 X91.33 Y97.141 E8.59037
G1 X91.651 Y96.98 E8.60112
G1 X92.602 Y96.559 E8.63225
G1 X92.942 Y96.427 E8.64317
G1 X94.051 Y96.062 E8.67812
G1 X94.369 Y95.976 E8.68798
G1 X95.414 Y95.748 E8.72
G1 X95.794 Y95.684 E8.73153
G1 X97.044 Y95.546 E8.76918
G1 X97.52 Y95.521 E8.78344
G1 X97.961 Y95.507 E8.79665
G1 X98.448 Y95.501 E8.81123
G1 X98.585 Y95.5 E8.81533
G1 X121.361 Y95.503 E9.49711
G1 X121.512 Y95.504 E9.50163
G1 X122.31 Y95.515 E9.52552
G1 X123.154 Y95.559 E9.55082
G1 X123.473 Y95.588 E9.56041
G1 X124.349 Y95.703 E9.58686
G1 X124.598 Y95.746 E9.59442
G1 X125.594 Y95.967 E9.62496
G1 X125.942 Y96.061 E9.63575
G1 X127.002 Y96.405 E9.66911
G1 X127.329 Y96.53 E9.67959
G1 X128.357 Y96.985 E9.71324
G1 X128.68 Y97.148 E9.72407
G1 X129.716 Y97.743 E9.75983
G1 X130.047 Y97.958 E9.77165
G1 X130.914 Y98.583 E9.80364
G1 X131.161 Y98.78 E9.8131
G1 X132.024 Y99.546 E9.84764
G1 X132.303 Y99.821 E9.85937
G1 X133.141 Y100.746 E9.89673
G1 X133.367 Y101.026 E9.9075
G1 X133.993 Y101.884 E9.93929
G1 X134.188 Y102.18 E9.9499
G1 X134.761 Y103.156 E9.98378
G1 X134.917 Y103.456 E9.9939
G1 X135.384 Y104.479 E10.02756
G1 X135.533 Y104.855 E10.03967
G1 X135.916 Y106.002 E10.07587
G1 X136.005 Y106.327 E10.08596
G1 X136.246 Y107.419 E10.11943
G1 X136.308 Y107.79 E10.13069
G1 X136.441 Y108.999 E10.1671
G1 X136.462 Y109.381 E10.17855
G1 X136.468 Y110.483 E10.21154
G1 X136.451 Y110.858 E10.22278
G1 X136.335 Y112.026 E10.25791
G1 X136.278 Y112.398 E10.26918
G1 X136.031 Y113.578 E10.30526
G1 X135.937 Y113.929 E10.31614
G1 X135.576 Y115.036 E10.351
G1 X135.447 Y115.371 E10.36174
G1 X134.991 Y116.397 E10.39535
G1 X134.824 Y116.726 E10.4064
G1 X134.23 Y117.753 E10.44191
G1 X134.026 Y118.066 E10.45309
G1 X133.388 Y118.947 E10.48565
G1 X133.176 Y119.211 E10.49579
G1 X132.437 Y120.042 E10.52908
G1 X132.179 Y120.304 E10.54008
G1 X131.256 Y121.141 E10.57738
G1 X130.969 Y121.373 E10.58843
G1 X130.089 Y122.015 E10.62104
G1 X129.772 Y122.223 E10.63239
G1 X128.681 Y122.852 E10.67008
G1 X128.361 Y123.013 E10.68081
G1 X127.392 Y123.444 E10.71255
G1 X127.054 Y123.575 E10.7234
G1 X125.987 Y123.927 E10.75704
G1 X125.666 Y124.015 E10.767
G1 X124.562 Y124.257 E10.80083
G1 X124.183 Y124.32 E10.81233
G1 X122.956 Y124.454 E10.84928
G1 X122.48 Y124.479 E10.86355
G1 X122.038 Y124.493 E10.87679
G1 X121.548 Y124.499 E10.89145
G1 X121.413 Y124.5 E10.8955
G1 X98.707 Y124.5 E11.57518
G1 X98.545 Y124.499 E11.58003
G1 X97.73 Y124.487 E11.60443
G1 X97.169 Y124.464 E11.62124
G1 X96.926 Y124.448 E11.62852
G1 X95.963 Y124.342 E11.65753
G1 X95.589 Y124.284 E11.66885
G1 X94.443 Y124.043 E11.70391
G1 X94.094 Y123.95 E11.71472
G1 X92.945 Y123.575 E11.7509
G1 X92.605 Y123.443 E11.76182
G1 X91.629 Y123.009 E11.79379
G1 X91.314 Y122.85 E11.80435
G1 X90.254 Y122.239 E11.84098
G1 X89.928 Y122.026 E11.85264
G1 X89.053 Y121.39 E11.88502
G1 X88.793 Y121.181 E11.895
G1 X87.936 Y120.415 E11.92941
G1 X87.669 Y120.15 E11.94067
G1 X86.867 Y119.262 E11.97649
G1 X86.638 Y118.979 E11.98739
G1 X85.996 Y118.1 E12.01997
G1 X85.791 Y117.788 E12.03114
G1 X85.165 Y116.706 E12.06856
G1 X85.011 Y116.401 E12.07879
G1 X84.587 Y115.452 E12.1099
G1 X84.45 Y115.102 E12.12115
G1 X84.078 Y113.976 E12.15665
G1 X83.99 Y113.652 E12.1667
G1 X83.756 Y112.586 E12.19937
G1 X83.69 Y112.192 E12.21133
G1 X83.553 Y110.923 E12.24954
G1 X83.535 Y110.562 E12.26036
G1 X83.533 Y109.504 E12.29203
G1 X83.551 Y109.116 E12.30365
G1 X83.672 Y107.92 E12.33964
G1 X83.729 Y107.557 E12.35064
G1 X83.973 Y106.408 E12.3858
G1 X84.066 Y106.062 E12.39652
G1 X84.426 Y104.958 E12.43128
G1 X84.556 Y104.621 E12.4421
G1 X85.01 Y103.601 E12.47552
G1 X85.176 Y103.274 E12.48649
G1 X85.775 Y102.239 E12.52229
G1 X85.982 Y101.922 E12.53362
G1 X86.625 Y101.036 E12.56639
G1 X86.836 Y100.774 E12.57646
G1 X87.581 Y99.94 E12.60994
G1 X87.846 Y99.672 E12.62122
G1 X88.172 Y99.377 E12.63438
G0 F1350 X88.766 Y98.841
G0 F7500 X89.017 Y99.152
G1 F1500 X89.295 Y98.928 E12.64507
G1 X90.118 Y98.328 E12.67556
G1 X90.434 Y98.12 E12.68688
G1 X91.51 Y97.499 E12.72407
G1 X91.831 Y97.338 E12.73482
G1 X92.747 Y96.932 E12.76481
G1 X93.087 Y96.8 E12.77573
G1 X94.156 Y96.449 E12.80941
G1 X94.474 Y96.363 E12.81927
G1 X95.481 Y96.142 E12.85013
G1 X95.861 Y96.078 E12.86167
G1 X97.065 Y95.946 E12.89792
G1 X97.541 Y95.921 E12.91219
G1 X97.966 Y95.907 E12.92492
G1 X98.453 Y95.901 E12.9395
G1 X98.585 Y95.9 E12.94345
G1 X121.361 Y95.903 E13.62523
G1 X121.506 Y95.904 E13.62957
G1 X122.304 Y95.915 E13.65346
G1 X123.118 Y95.958 E13.67786
G1 X123.437 Y95.987 E13.68745
G1 X124.281 Y96.098 E13.71293
G1 X124.53 Y96.141 E13.72049
G1 X125.49 Y96.353 E13.74992
G1 X125.838 Y96.447 E13.76071
G1 X126.859 Y96.779 E13.79285
G1 X127.186 Y96.904 E13.80333
G1 X128.177 Y97.342 E13.83576
G1 X128.5 Y97.505 E13.84659
G1 X129.498 Y98.079 E13.88106
G1 X129.829 Y98.294 E13.89287
G1 X130.664 Y98.896 E13.92369
G1 X130.911 Y99.093 E13.93314
G1 X131.743 Y99.831 E13.96643
G1 X132.022 Y100.106 E13.97816
G1 X132.829 Y100.997 E14.01415
G1 X133.055 Y101.277 E14.02492
G1 X133.659 Y102.104 E14.05557
G1 X133.854 Y102.4 E14.06618
G1 X134.406 Y103.341 E14.09884
G1 X134.562 Y103.641 E14.10896
G1 X135.012 Y104.626 E14.14138
G1 X135.161 Y105.002 E14.15348
G1 X135.531 Y106.107 E14.18837
G1 X135.62 Y106.432 E14.19845
G1 X135.851 Y107.485 E14.23072
G1 X135.913 Y107.856 E14.24198
G1 X136.042 Y109.021 E14.27707
G1 X136.063 Y109.403 E14.28852
G1 X136.068 Y110.465 E14.32031
G1 X136.051 Y110.84 E14.33155
G1 X135.94 Y111.965 E14.36539
G1 X135.883 Y112.337 E14.37665
G1 X135.644 Y113.474 E14.41143
G1 X135.55 Y113.825 E14.42231
G1 X135.203 Y114.892 E14.4559
G1 X135.074 Y115.227 E14.46664
G1 X134.634 Y116.216 E14.49904
G1 X134.467 Y116.545 E14.51009
G1 X133.895 Y117.535 E14.54431
G1 X133.691 Y117.848 E14.5555
G1 X133.076 Y118.697 E14.58688
G1 X132.864 Y118.961 E14.59701
G1 X132.152 Y119.761 E14.62907
G1 X131.894 Y120.023 E14.64008
G1 X131.005 Y120.829 E14.676
G1 X130.718 Y121.061 E14.68705
G1 X129.869 Y121.681 E14.71852
G1 X129.552 Y121.889 E14.72987
G1 X128.501 Y122.495 E14.76618
G1 X128.181 Y122.656 E14.7769
G1 X127.248 Y123.071 E14.80747
G1 X126.91 Y123.202 E14.81832
G1 X125.882 Y123.541 E14.85072
G1 X125.561 Y123.629 E14.86069
G1 X124.496 Y123.863 E14.89333
G1 X124.117 Y123.926 E14.90483
G1 X122.935 Y124.054 E14.94042
G1 X122.459 Y124.079 E14.95469
G1 X122.033 Y124.093 E14.96745
G1 X121.543 Y124.099 E14.98211
G1 X121.413 Y124.1 E14.98601
G1 X98.707 Y124.1 E15.66569
G1 X98.551 Y124.099 E15.67036
G1 X97.736 Y124.087 E15.69476
G1 X97.196 Y124.065 E15.71094
G1 X96.953 Y124.049 E15.71823
G1 X96.025 Y123.947 E15.74617
G1 X95.651 Y123.889 E15.7575
G1 X94.546 Y123.657 E15.7913
G1 X94.197 Y123.564 E15.80211
G1 X93.09 Y123.202 E15.83698
G1 X92.75 Y123.07 E15.84789
G1 X91.81 Y122.652 E15.87869
