;FLAVOR:Marlin
;TIME:492
;Filament used: 0.187197m
;Layer height: 0.2
;MINX:86.2
;MINY:86.2
;MINZ:0.2
;MAXX:133.8
;MAXY:133.8
;MAXZ:10
;Generated with Cura_SteamEngine 4.4.0
M82 ;absolute extrusion mode

;
;********************************************
;***********BEGIN START CODE*****************
;********************************************
;

G28

M104 S195 ;Start heating extruder
M140 S50 ;Start heating bed

;M201 X500.00 Y500.00 Z100.00 E5000.00 ;Setup machine max acceleration
;M203 X500.00 Y500.00 Z10.00 E50.00 ;Setup machine max feedrate
;M204 P500.00 R1000.00 T500.00 ;Setup Print/Retract/Travel acceleration
;M205 X8.00 Y8.00 Z0.40 E5.00 ;Setup Jerk
M220 S100 ;Reset Feedrate
M221 S100 ;Reset Flowrate

M190 S50 ;Wait for bed to reach temp before proceeding

G28 Z;Home

M109 S195 ;Wait for extruder to reach temp before proceeding
M190 S50 ;Wait for bed to reach temp before proceeding

G92 E0 ;Reset Extruder
G1 Z2.0 F3000 ;Move Z Axis up
G1 X2.0 Y2 Z0.28 F5000.0 ;Move to start position
G1 X2.0 Y218.0 Z0.28 F1500.0 E15 ;Draw the first line
G1 X3.0 Y218.0 Z0.28 F5000.0 ;Move to side 1mm
G1 X3.0 Y2 Z0.28 F1500.0 E30 ;Draw the second line
G92 E0 ;Reset Extruder
G1 Z2.0 F3000 ;Move Z Axis up

;
;********************************************
;***********END of START CODE*****************
;********************************************
;
G92 E0
G92 E0
G1 F1500 E-4
;LAYER_COUNT:50
;LAYER:0
M107
G1 F300 Z0.4
G0 F7500 X90.214 Y90.293 Z0.4
;TYPE:SKIRT
G1 F300 Z0.2
G1 F1500 E0
G1 X90.684 Y89.85 E0.02148
G1 X91.004 Y89.565 E0.03573
G1 X91.755 Y88.95 E0.06802
G1 X92.658 Y88.333 E0.10439
G1 X92.898 Y88.185 E0.11377
G1 X93.745 Y87.71 E0.14607
G1 X94.554 Y87.337 E0.1757
G1 X94.83 Y87.222 E0.18565
G1 X95.741 Y86.885 E0.21795
G1 X96.435 Y86.684 E0.24198
G1 X96.661 Y86.626 E0.24974
G1 X97.611 Y86.424 E0.28205
G1 X98.42 Y86.315 E0.3092
G1 X98.91 Y86.266 E0.32558
G1 X99.913 Y86.208 E0.35899
G1 X100.396 Y86.201 E0.37506
G1 X100.567 Y86.2 E0.38075
G1 X119.293 Y86.2 E1.00358
G1 X119.46 Y86.201 E1.00913
G1 X120.166 Y86.211 E1.03261
G1 X120.803 Y86.237 E1.05382
G1 X121.008 Y86.251 E1.06065
G1 X121.974 Y86.357 E1.09298
G1 X122.72 Y86.495 E1.11821
G1 X123.169 Y86.593 E1.13349
G1 X124.109 Y86.839 E1.16581
G1 X125.232 Y87.247 E1.20555
G1 X125.479 Y87.351 E1.21446
G1 X126.358 Y87.764 E1.24677
G1 X127.031 Y88.144 E1.27247
G1 X127.304 Y88.31 E1.2831
G1 X128.112 Y88.848 E1.31539
G1 X128.775 Y89.367 E1.34339
G1 X128.94 Y89.506 E1.35057
G1 X129.657 Y90.162 E1.38289
G1 X130.162 Y90.697 E1.40736
G1 X130.447 Y91.018 E1.42164
G1 X131.061 Y91.77 E1.45393
G1 X131.686 Y92.689 E1.49089
G1 X131.833 Y92.929 E1.50025
G1 X132.305 Y93.777 E1.53253
G1 X132.634 Y94.487 E1.55856
G1 X132.751 Y94.763 E1.56853
G1 X133.093 Y95.672 E1.60083
G1 X133.329 Y96.482 E1.62889
G1 X133.386 Y96.708 E1.63664
G1 X133.584 Y97.659 E1.66895
G1 X133.685 Y98.417 E1.69439
G1 X133.734 Y98.906 E1.71073
G1 X133.792 Y99.912 E1.74425
G1 X133.799 Y100.396 E1.76035
G1 X133.8 Y100.567 E1.76603
G1 X133.8 Y119.267 E2.388
G1 X133.799 Y119.428 E2.39335
G1 X133.789 Y120.16 E2.4177
G1 X133.763 Y120.803 E2.43911
G1 X133.749 Y121.008 E2.44594
G1 X133.643 Y121.974 E2.47826
G1 X133.506 Y122.712 E2.50323
G1 X133.409 Y123.158 E2.51841
G1 X133.164 Y124.098 E2.55072
G1 X132.765 Y125.204 E2.58982
G1 X132.66 Y125.455 E2.59887
G1 X132.248 Y126.335 E2.63119
G1 X131.834 Y127.069 E2.65922
G1 X131.666 Y127.343 E2.66991
G1 X131.124 Y128.149 E2.70221
G1 X130.639 Y128.767 E2.72834
G1 X130.502 Y128.93 E2.73543
G1 X129.847 Y129.648 E2.76775
G1 X129.303 Y130.162 E2.79264
G1 X128.982 Y130.447 E2.80692
G1 X128.23 Y131.061 E2.83921
G1 X127.349 Y131.662 E2.87468
G1 X127.111 Y131.809 E2.88398
G1 X126.264 Y132.285 E2.9163
G1 X125.487 Y132.646 E2.9448
G1 X125.209 Y132.763 E2.95483
G1 X124.299 Y133.103 E2.98714
G1 X123.518 Y133.329 E3.01418
G1 X123.292 Y133.386 E3.02193
G1 X122.341 Y133.584 E3.05424
G1 X121.58 Y133.685 E3.07977
G1 X121.09 Y133.734 E3.09615
G1 X120.087 Y133.792 E3.12957
G1 X119.604 Y133.799 E3.14563
G1 X119.433 Y133.8 E3.15132
G1 X100.707 Y133.8 E3.77415
G1 X100.54 Y133.799 E3.77971
G1 X99.834 Y133.789 E3.80319
G1 X99.197 Y133.763 E3.82439
G1 X98.992 Y133.749 E3.83123
G1 X98.026 Y133.643 E3.86355
G1 X97.28 Y133.505 E3.88878
G1 X96.831 Y133.407 E3.90407
G1 X95.891 Y133.161 E3.93639
G1 X94.793 Y132.764 E3.97522
G1 X94.542 Y132.659 E3.98427
G1 X93.662 Y132.247 E4.01659
G1 X92.926 Y131.832 E4.04469
G1 X92.657 Y131.667 E4.05519
G1 X91.851 Y131.125 E4.08749
G1 X91.205 Y130.616 E4.11485
G1 X91.036 Y130.473 E4.12221
G1 X90.321 Y129.816 E4.1545
G1 X89.829 Y129.294 E4.17836
G1 X89.547 Y128.976 E4.1925
G1 X88.933 Y128.223 E4.22481
G1 X88.302 Y127.292 E4.26222
G1 X88.155 Y127.051 E4.27161
G1 X87.684 Y126.201 E4.30393
G1 X87.363 Y125.506 E4.32939
G1 X87.247 Y125.232 E4.33929
G1 X86.905 Y124.323 E4.37159
G1 X86.66 Y123.471 E4.40108
G1 X86.602 Y123.237 E4.4091
G1 X86.407 Y122.285 E4.44142
G1 X86.313 Y121.567 E4.4655
G1 X86.265 Y121.085 E4.48161
G1 X86.208 Y120.087 E4.51486
G1 X86.201 Y119.604 E4.53093
G1 X86.2 Y119.433 E4.53662
G1 X86.2 Y100.694 E5.15988
G1 X86.201 Y100.526 E5.16547
G1 X86.211 Y99.823 E5.18885
G1 X86.265 Y98.853 E5.22116
G1 X86.383 Y97.978 E5.25053
G1 X86.494 Y97.337 E5.27216
G1 X86.699 Y96.387 E5.30449
G1 X86.981 Y95.458 E5.33678
G1 X87.244 Y94.775 E5.36112
G1 X87.35 Y94.523 E5.37022
G1 X87.763 Y93.644 E5.40252
G1 X88.145 Y92.967 E5.42837
G1 X88.311 Y92.694 E5.439
G1 X88.849 Y91.886 E5.47129
G1 X89.414 Y91.168 E5.50167
G1 X89.553 Y91.005 E5.5088
G1 X89.67 Y90.879 E5.51452
G0 F1350 X90.214 Y90.293
G0 F7500 X90.507 Y90.565
G1 F1500 X90.95 Y90.149 E5.53473
G1 X91.27 Y89.864 E5.54898
G1 X92.009 Y89.259 E5.58075
G1 X92.868 Y88.674 E5.61531
G1 X93.108 Y88.526 E5.62469
G1 X93.941 Y88.059 E5.65645
G1 X94.707 Y87.706 E5.68451
G1 X94.983 Y87.591 E5.69445
G1 X95.879 Y87.261 E5.72621
G1 X96.534 Y87.072 E5.74888
G1 X96.76 Y87.014 E5.75664
G1 X97.694 Y86.815 E5.78841
G1 X98.46 Y86.713 E5.81411
G1 X98.95 Y86.664 E5.83049
G1 X99.919 Y86.608 E5.86277
G1 X100.402 Y86.601 E5.87884
G1 X100.567 Y86.6 E5.88433
G1 X119.293 Y86.6 E6.50715
G1 X119.454 Y86.601 E6.51251
G1 X120.16 Y86.611 E6.53599
G1 X120.776 Y86.636 E6.5565
G1 X120.981 Y86.65 E6.56333
G1 X121.93 Y86.755 E6.59509
G1 X122.635 Y86.886 E6.61894
G1 X123.084 Y86.984 E6.63422
G1 X124.007 Y87.227 E6.66597
G1 X125.077 Y87.615 E6.70383
G1 X125.324 Y87.719 E6.71274
G1 X126.188 Y88.126 E6.7445
G1 X126.823 Y88.485 E6.76877
G1 X127.096 Y88.651 E6.77939
G1 X127.89 Y89.181 E6.81114
G1 X128.518 Y89.673 E6.83768
G1 X128.683 Y89.812 E6.84485
G1 X129.387 Y90.458 E6.87663
G1 X129.863 Y90.962 E6.89969
G1 X130.148 Y91.283 E6.91397
G1 X130.751 Y92.023 E6.94572
G1 X131.344 Y92.898 E6.98087
G1 X131.491 Y93.138 E6.99024
G1 X131.956 Y93.972 E7.02199
G1 X132.266 Y94.643 E7.04658
G1 X132.383 Y94.919 E7.05655
G1 X132.718 Y95.813 E7.0883
G1 X132.941 Y96.58 E7.11487
G1 X132.998 Y96.806 E7.12262
G1 X133.192 Y97.741 E7.15438
G1 X133.287 Y98.457 E7.17841
G1 X133.336 Y98.946 E7.19475
G1 X133.392 Y99.918 E7.22713
G1 X133.399 Y100.402 E7.24323
G1 X133.4 Y100.567 E7.24872
G1 X133.4 Y119.267 E7.87069
G1 X133.399 Y119.423 E7.87587
G1 X133.389 Y120.155 E7.90022
G1 X133.364 Y120.776 E7.92089
G1 X133.35 Y120.981 E7.92773
G1 X133.245 Y121.93 E7.95948
G1 X133.116 Y122.627 E7.98306
G1 X133.019 Y123.073 E7.99824
G1 X132.777 Y123.996 E8.02998
G1 X132.396 Y125.049 E8.06722
G1 X132.291 Y125.3 E8.07627
G1 X131.886 Y126.165 E8.10804
G1 X131.493 Y126.86 E8.1346
G1 X131.325 Y127.134 E8.14529
G1 X130.792 Y127.926 E8.17704
G1 X130.333 Y128.51 E8.20174
G1 X130.196 Y128.673 E8.20882
G1 X129.552 Y129.377 E8.24056
G1 X129.038 Y129.863 E8.26409
G1 X128.717 Y130.148 E8.27836
G1 X127.977 Y130.751 E8.31011
G1 X127.139 Y131.322 E8.34384
G1 X126.901 Y131.469 E8.35314
G1 X126.068 Y131.936 E8.38491
G1 X125.332 Y132.277 E8.41189
G1 X125.054 Y132.394 E8.42192
G1 X124.159 Y132.728 E8.45369
G1 X123.42 Y132.941 E8.47927
G1 X123.194 Y132.998 E8.48702
G1 X122.259 Y133.192 E8.51878
G1 X121.54 Y133.287 E8.54291
G1 X121.05 Y133.336 E8.55928
G1 X120.081 Y133.392 E8.59157
G1 X119.598 Y133.399 E8.60763
G1 X119.433 Y133.4 E8.61312
G1 X100.707 Y133.4 E9.23595
G1 X100.546 Y133.399 E9.24131
G1 X99.84 Y133.389 E9.26479
G1 X99.224 Y133.364 E9.28529
G1 X99.019 Y133.35 E9.29213
G1 X98.07 Y133.245 E9.32389
G1 X97.365 Y133.114 E9.34774
G1 X96.916 Y133.016 E9.36302
G1 X95.993 Y132.773 E9.39477
G1 X94.948 Y132.395 E9.43173
G1 X94.697 Y132.29 E9.44078
G1 X93.832 Y131.885 E9.47254
G1 X93.135 Y131.491 E9.49917
G1 X92.866 Y131.326 E9.50967
G1 X92.074 Y130.793 E9.54142
G1 X91.463 Y130.311 E9.5673
G1 X91.294 Y130.168 E9.57467
G1 X90.592 Y129.521 E9.60642
G1 X90.129 Y129.029 E9.62889
G1 X89.847 Y128.711 E9.64303
G1 X89.244 Y127.97 E9.6748
G1 X88.644 Y127.083 E9.71042
G1 X88.497 Y126.842 E9.71981
G1 X88.034 Y126.007 E9.75157
G1 X87.731 Y125.35 E9.77563
G1 X87.615 Y125.076 E9.78553
G1 X87.28 Y124.182 E9.81728
G1 X87.048 Y123.375 E9.84521
G1 X86.99 Y123.141 E9.85323
G1 X86.799 Y122.205 E9.885
G1 X86.711 Y121.528 E9.90771
G1 X86.663 Y121.046 E9.92382
G1 X86.608 Y120.081 E9.95596
G1 X86.601 Y119.598 E9.97203
G1 X86.6 Y119.433 E9.97752
G1 X86.6 Y100.694 E10.60078
G1 X86.601 Y100.532 E10.60617
G1 X86.611 Y99.829 E10.62955
G1 X86.665 Y98.876 E10.6613
G1 X86.777 Y98.046 E10.68916
G1 X86.888 Y97.405 E10.71079
G1 X87.09 Y96.472 E10.74254
G1 X87.37 Y95.559 E10.77431
G1 X87.613 Y94.93 E10.79673
G1 X87.719 Y94.678 E10.80583
G1 X88.126 Y93.814 E10.83759
G1 X88.486 Y93.175 E10.86199
G1 X88.652 Y92.902 E10.87261
G1 X89.182 Y92.108 E10.90436
G1 X89.719 Y91.428 E10.93318
G1 X89.858 Y91.265 E10.94031
G1 X89.963 Y91.152 E10.94544
G0 F1350 X90.507 Y90.565
G0 F7500 X90.801 Y90.837
G1 F1500 X91.216 Y90.448 E10.96436
G1 X91.536 Y90.163 E10.97861
G1 X92.262 Y89.569 E11.00981
G1 X93.078 Y89.014 E11.04263
G1 X93.318 Y88.866 E11.05201
G1 X94.137 Y88.408 E11.08322
G1 X94.861 Y88.075 E11.10973
G1 X95.137 Y87.96 E11.11967
G1 X96.018 Y87.637 E11.15088
G1 X96.634 Y87.459 E11.17221
G1 X96.86 Y87.401 E11.17997
G1 X97.777 Y87.207 E11.21114
G1 X98.499 Y87.111 E11.23537
G1 X98.989 Y87.062 E11.25175
G1 X99.925 Y87.008 E11.28293
G1 X100.408 Y87.001 E11.299
G1 X100.567 Y87 E11.30428
G1 X119.293 Y87 E11.92711
G1 X119.449 Y87.001 E11.9323
G1 X120.155 Y87.011 E11.95579
G1 X120.748 Y87.036 E11.97553
G1 X120.953 Y87.05 E11.98236
G1 X121.886 Y87.153 E12.01358
G1 X122.55 Y87.277 E12.03605
G1 X122.999 Y87.375 E12.05133
G1 X123.906 Y87.614 E12.08253
G1 X124.922 Y87.984 E12.11849
G1 X125.169 Y88.088 E12.12741
G1 X126.017 Y88.488 E12.15859
G1 X126.615 Y88.827 E12.18145
G1 X126.888 Y88.993 E12.19208
G1 X127.668 Y89.514 E12.22328
G1 X128.26 Y89.979 E12.24832
G1 X128.425 Y90.118 E12.25549
G1 X129.116 Y90.753 E12.28671
G1 X129.564 Y91.228 E12.30842
G1 X129.849 Y91.549 E12.3227
G1 X130.441 Y92.276 E12.35388
G1 X131.003 Y93.107 E12.38725
G1 X131.15 Y93.347 E12.39661
G1 X131.606 Y94.166 E12.42779
G1 X131.898 Y94.799 E12.45097
G1 X132.015 Y95.075 E12.46094
G1 X132.343 Y95.953 E12.49212
G1 X132.553 Y96.678 E12.51722
G1 X132.61 Y96.904 E12.52498
G1 X132.8 Y97.822 E12.55616
G1 X132.889 Y98.497 E12.5788
G1 X132.938 Y98.986 E12.59515
G1 X132.992 Y99.924 E12.6264
G1 X132.999 Y100.408 E12.64249
G1 X133 Y100.567 E12.64778
G1 X133 Y119.267 E13.26975
G1 X132.999 Y119.417 E13.27474
G1 X132.989 Y120.149 E13.29909
G1 X132.964 Y120.748 E13.31903
G1 X132.95 Y120.953 E13.32586
G1 X132.847 Y121.886 E13.35708
G1 X132.725 Y122.542 E13.37927
G1 X132.628 Y122.988 E13.39445
G1 X132.39 Y123.895 E13.42564
G1 X132.027 Y124.895 E13.46103
G1 X131.922 Y125.146 E13.47008
G1 X131.523 Y125.995 E13.50128
G1 X131.152 Y126.651 E13.52634
G1 X130.984 Y126.925 E13.53703
G1 X130.46 Y127.703 E13.56823
G1 X130.027 Y128.253 E13.59151
G1 X129.89 Y128.416 E13.59859
G1 X129.256 Y129.107 E13.62978
G1 X128.772 Y129.564 E13.65192
G1 X128.451 Y129.849 E13.6662
G1 X127.724 Y130.441 E13.69739
G1 X126.928 Y130.982 E13.7294
G1 X126.69 Y131.129 E13.7387
G1 X125.872 Y131.587 E13.76988
G1 X125.177 Y131.909 E13.79536
G1 X124.899 Y132.026 E13.80539
G1 X124.02 Y132.352 E13.83657
G1 X123.322 Y132.553 E13.86073
G1 X123.096 Y132.61 E13.86848
G1 X122.178 Y132.8 E13.89966
G1 X121.501 Y132.889 E13.92237
G1 X121.011 Y132.938 E13.93875
G1 X120.075 Y132.992 E13.96993
G1 X119.592 Y132.999 E13.986
G1 X119.433 Y133 E13.99129
G1 X100.707 Y133 E14.61412
G1 X100.551 Y132.999 E14.61931
G1 X99.845 Y132.989 E14.64279
G1 X99.252 Y132.964 E14.66253
G1 X99.047 Y132.95 E14.66937
G1 X98.114 Y132.847 E14.70059
G1 X97.45 Y132.723 E14.72305
G1 X97.001 Y132.625 E14.73834
G1 X96.094 Y132.386 E14.76954
G1 X95.102 Y132.026 E14.80463
G1 X94.851 Y131.921 E14.81368
G1 X94.002 Y131.522 E14.84489
G1 X93.345 Y131.15 E14.87
G1 X93.076 Y130.985 E14.88049
G1 X92.298 Y130.461 E14.91169
G1 X91.722 Y130.005 E14.93613
G1 X91.553 Y129.862 E14.94349
G1 X90.863 Y129.226 E14.9747
G1 X90.428 Y128.763 E14.99583
G1 X90.146 Y128.445 E15.00997
G1 X89.554 Y127.718 E15.04115
G1 X88.985 Y126.875 E15.07498
G1 X88.838 Y126.634 E15.08437
G1 X88.384 Y125.813 E15.11557
G1 X88.099 Y125.194 E15.13823
G1 X87.983 Y124.92 E15.14813
G1 X87.655 Y124.042 E15.1793
G1 X87.436 Y123.278 E15.20574
G1 X87.378 Y123.044 E15.21376
G1 X87.191 Y122.125 E15.24495
G1 X87.109 Y121.488 E15.26631
G1 X87.061 Y121.006 E15.28242
G1 X87.008 Y120.075 E15.31344
G1 X87.001 Y119.592 E15.3295
G1 X87 Y119.433 E15.33479
G1 X87 Y100.694 E15.95805
G1 X87.001 Y100.538 E15.96324
G1 X87.011 Y99.835 E15.98663
G1 X87.064 Y98.898 E16.01784
G1 X87.171 Y98.114 E16.04416
G1 X87.282 Y97.473 E16.0658
G1 X87.482 Y96.557 E16.09698
G1 X87.758 Y95.66 E16.12819
G1 X87.981 Y95.085 E16.14871
G1 X88.087 Y94.833 E16.1578
G1 X88.488 Y93.985 E16.189
G1 X88.828 Y93.383 E16.21199
G1 X88.994 Y93.11 E16.22262
G1 X89.515 Y92.33 E16.25382
G1 X90.023 Y91.687 E16.28107
G1 X90.162 Y91.524 E16.2882
G1 X90.257 Y91.422 E16.29284
G0 F1350 X90.801 Y90.837
G0 F7500 X91.094 Y91.11
G1 F1500 X91.482 Y90.746 E16.31053
G1 X91.802 Y90.461 E16.32478
G1 X92.516 Y89.879 E16.35542
G1 X93.288 Y89.355 E16.38645
G1 X93.528 Y89.207 E16.39583
G1 X94.332 Y88.758 E16.42646
G1 X95.015 Y88.444 E16.45146
G1 X95.291 Y88.329 E16.46141
G1 X96.155 Y88.013 E16.49201
G1 X96.733 Y87.847 E16.51201
G1 X96.959 Y87.789 E16.51977
G1 X97.86 Y87.599 E16.55039
G1 X98.539 Y87.509 E16.57318
G1 X99.029 Y87.46 E16.58955
G1 X99.93 Y87.408 E16.61957
G1 X100.413 Y87.401 E16.63564
G1 X100.567 Y87.4 E16.64076
G1 X119.293 Y87.4 E17.26359
G1 X119.443 Y87.401 E17.26858
G1 X120.149 Y87.411 E17.29206
G1 X120.721 Y87.435 E17.3111
G1 X120.926 Y87.449 E17.31794
G1 X121.841 Y87.551 E17.34856
G1 X122.464 Y87.668 E17.36964
G1 X122.913 Y87.766 E17.38493
G1 X123.803 Y88.001 E17.41554
G1 X124.766 Y88.353 E17.44965
G1 X125.013 Y88.457 E17.45856
G1 X125.846 Y88.85 E17.48919
G1 X126.407 Y89.169 E17.51066
G1 X126.68 Y89.335 E17.52129
G1 X127.445 Y89.847 E17.5519
G1 X128.002 Y90.285 E17.57547
G1 X128.167 Y90.424 E17.58265
G1 X128.845 Y91.047 E17.61327
G1 X129.265 Y91.493 E17.63365
G1 X129.55 Y91.814 E17.64792
G1 X130.13 Y92.529 E17.67855
G1 X130.662 Y93.315 E17.71011
G1 X130.809 Y93.555 E17.71947
G1 X131.256 Y94.361 E17.75013
G1 X131.529 Y94.955 E17.77187
G1 X131.646 Y95.231 E17.78184
G1 X131.968 Y96.093 E17.81245
G1 X132.165 Y96.776 E17.83609
G1 X132.222 Y97.002 E17.84384
G1 X132.408 Y97.903 E17.87444
G1 X132.491 Y98.537 E17.89571
G1 X132.54 Y99.026 E17.91205
G1 X132.592 Y99.93 E17.94217
G1 X132.599 Y100.414 E17.95827
G1 X132.6 Y100.567 E17.96336
G1 X132.6 Y119.267 E18.58532
G1 X132.599 Y119.412 E18.59015
G1 X132.589 Y120.144 E18.6145
G1 X132.565 Y120.721 E18.6337
G1 X132.551 Y120.926 E18.64054
G1 X132.449 Y121.841 E18.67116
G1 X132.334 Y122.457 E18.692
G1 X132.237 Y122.903 E18.70718
G1 X132.002 Y123.793 E18.7378
G1 X131.658 Y124.741 E18.77134
G1 X131.553 Y124.992 E18.78039
G1 X131.161 Y125.825 E18.81101
G1 X130.811 Y126.442 E18.8346
G1 X130.643 Y126.716 E18.84529
G1 X130.128 Y127.479 E18.87591
G1 X129.721 Y127.995 E18.89777
G1 X129.584 Y128.158 E18.90485
G1 X128.961 Y128.837 E18.9355
G1 X128.507 Y129.265 E18.95625
G1 X128.186 Y129.55 E18.97053
G1 X127.471 Y130.13 E19.00115
G1 X126.718 Y130.641 E19.03142
G1 X126.48 Y130.788 E19.04072
