;FLAVOR:Marlin
;TIME:6015
;Filament used: 3.10283m
;Layer height: 0.2
;MINX:73.414
;MINY:18.364
;MINZ:0.2
;MAXX:146.586
;MAXY:91.536
;MAXZ:56.2
;Generated with Cura_SteamEngine 4.4.0
M82 ;absolute extrusion mode

;
;********************************************
;***********BEGIN START CODE*****************
;********************************************
;

M104 S195 ;Start heating extruder
M140 S60 ;Start heating bed

;M201 X500.00 Y500.00 Z100.00 E5000.00 ;Setup machine max acceleration
;M203 X500.00 Y500.00 Z10.00 E50.00 ;Setup machine max feedrate
;M204 P500.00 R1000.00 T500.00 ;Setup Print/Retract/Travel acceleration
;M205 X8.00 Y8.00 Z0.40 E5.00 ;Setup Jerk
M220 S100 ;Reset Feedrate
M221 S100 ;Reset Flowrate

G28 XY

;M109 S195 ;Wait for extruder to reach temp before proceeding
M190 S60 ;Wait for bed to reach temp before proceeding

G28 Z;Home

M109 S195 ;Wait for extruder to reach temp before proceeding
M190 S60 ;Wait for bed to reach temp before proceeding

G92 E0 ;Reset Extruder
G1 Z2.0 F3000 ;Move Z Axis up
G1 X2.0 Y2 Z0.28 F5000.0 ;Move to start position
G1 X2.0 Y218.0 Z0.28 F1500.0 E15 ;Draw the first line
G1 X3.0 Y218.0 Z0.28 F5000.0 ;Move to side 1mm
G1 X3.0 Y2 Z0.28 F1500.0 E30 ;Draw the second line
G92 E0 ;Reset Extruder
G1 Z2.0 F3000 ;Move Z Axis up

;
;********************************************
;***********END of START CODE*****************
;********************************************
;
G92 E0
G92 E0
G1 F1500 E-6
;LAYER_COUNT:281
;LAYER:0
M107
G1 F300 Z0.4
G0 F7500 X74.11 Y26.205 Z0.4
;TYPE:SKIRT
G1 F300 Z0.2
G1 F1500 E0
G1 X74.474 Y25.305 E0.03229
G1 X74.911 Y24.437 E0.06461
G1 X75.418 Y23.608 E0.09693
G1 X75.991 Y22.824 E0.12923
G1 X76.626 Y22.09 E0.16151
G1 X77.32 Y21.41 E0.19383
G1 X78.068 Y20.79 E0.22614
G1 X78.864 Y20.233 E0.25845
G1 X79.703 Y19.744 E0.29075
G1 X80.58 Y19.325 E0.32308
G1 X81.488 Y18.98 E0.35539
G1 X82.421 Y18.711 E0.38768
G1 X83.373 Y18.519 E0.41998
G1 X84.338 Y18.406 E0.4523
G1 X84.892 Y18.378 E0.47075
G1 X85.213 Y18.369 E0.48143
G1 X85.544 Y18.364 E0.49244
G1 X134.079 Y18.364 E2.10672
G1 X134.248 Y18.365 E2.11234
G1 X134.946 Y18.375 E2.13556
G1 X135.916 Y18.429 E2.16787
G1 X136.878 Y18.563 E2.20018
G1 X137.826 Y18.775 E2.23249
G1 X138.753 Y19.064 E2.26478
G1 X139.654 Y19.429 E2.29712
G1 X140.521 Y19.866 E2.32941
G1 X141.349 Y20.374 E2.36172
G1 X142.133 Y20.948 E2.39403
G1 X142.867 Y21.584 E2.42634
G1 X143.546 Y22.278 E2.45863
G1 X144.166 Y23.026 E2.49094
G1 X144.722 Y23.823 E2.52327
G1 X145.211 Y24.662 E2.55556
G1 X145.629 Y25.539 E2.58788
G1 X145.973 Y26.448 E2.6202
G1 X146.242 Y27.381 E2.6525
G1 X146.433 Y28.334 E2.68483
G1 X146.544 Y29.298 E2.7171
G1 X146.572 Y29.842 E2.73522
G1 X146.581 Y30.162 E2.74587
G1 X146.586 Y30.494 E2.75691
G1 X146.586 Y79 E4.37023
G1 X146.585 Y79.146 E4.37508
G1 X146.576 Y79.873 E4.39926
G1 X146.524 Y80.843 E4.43157
G1 X146.392 Y81.806 E4.4639
G1 X146.182 Y82.754 E4.4962
G1 X145.895 Y83.682 E4.5285
G1 X145.532 Y84.583 E4.56081
G1 X145.096 Y85.451 E4.59312
G1 X144.59 Y86.28 E4.62542
G1 X144.018 Y87.065 E4.65773
G1 X143.383 Y87.8 E4.69003
G1 X142.69 Y88.481 E4.72235
G1 X141.943 Y89.102 E4.75466
G1 X141.147 Y89.66 E4.78699
G1 X140.309 Y90.15 E4.81928
G1 X139.433 Y90.57 E4.85159
G1 X138.525 Y90.916 E4.88391
G1 X137.592 Y91.186 E4.91621
G1 X136.64 Y91.379 E4.94852
G1 X135.675 Y91.493 E4.98084
G1 X135.108 Y91.522 E4.99972
G1 X134.787 Y91.531 E5.0104
G1 X134.456 Y91.536 E5.02141
G1 X85.921 Y91.536 E6.6357
G1 X85.769 Y91.535 E6.64075
G1 X85.071 Y91.526 E6.66397
G1 X84.101 Y91.474 E6.69628
G1 X83.139 Y91.341 E6.72858
G1 X82.19 Y91.131 E6.7609
G1 X81.263 Y90.843 E6.79319
G1 X80.362 Y90.479 E6.82551
G1 X79.494 Y90.043 E6.85782
G1 X78.665 Y89.537 E6.89012
G1 X77.88 Y88.964 E6.92245
G1 X77.145 Y88.329 E6.95475
G1 X76.465 Y87.635 E6.98707
G1 X75.844 Y86.888 E7.01938
G1 X75.287 Y86.092 E7.05169
G1 X74.797 Y85.254 E7.08398
G1 X74.378 Y84.377 E7.11631
G1 X74.032 Y83.47 E7.14859
G1 X73.762 Y82.536 E7.18093
G1 X73.57 Y81.584 E7.21323
G1 X73.457 Y80.619 E7.24555
G1 X73.427 Y80.046 E7.26463
G1 X73.418 Y79.713 E7.27571
G1 X73.414 Y79.394 E7.28632
G1 X73.414 Y30.838 E8.9013
G1 X73.415 Y30.678 E8.90662
G1 X73.424 Y30.013 E8.92874
G1 X73.477 Y29.043 E8.96105
G1 X73.61 Y28.081 E8.99335
G1 X73.821 Y27.133 E9.02566
G1 X73.991 Y26.587 E9.04467
G0 F1350 X74.11 Y26.205
G0 F7500 X74.509 Y26.279
G1 F1500 X74.872 Y25.396 E9.07643
G1 X75.308 Y24.546 E9.1082
G1 X75.814 Y23.736 E9.13997
G1 X76.386 Y22.972 E9.17171
G1 X77.019 Y22.257 E9.20347
G1 X77.71 Y21.599 E9.23521
G1 X78.454 Y21 E9.26698
G1 X79.246 Y20.466 E9.29875
G1 X80.079 Y20 E9.33049
G1 X80.948 Y19.605 E9.36224
G1 X81.847 Y19.284 E9.39399
G1 X82.77 Y19.04 E9.42575
G1 X83.711 Y18.874 E9.45753
G1 X84.903 Y18.777 E9.4973
G1 X85.224 Y18.768 E9.50798
G1 X85.544 Y18.764 E9.51863
G1 X134.079 Y18.764 E11.13291
G1 X134.242 Y18.765 E11.13833
G1 X134.94 Y18.775 E11.16155
G1 X135.894 Y18.829 E11.19333
G1 X136.839 Y18.962 E11.22507
G1 X137.77 Y19.174 E11.25683
G1 X138.68 Y19.463 E11.28858
G1 X139.563 Y19.827 E11.32035
G1 X140.412 Y20.264 E11.35211
G1 X141.221 Y20.77 E11.38385
G1 X141.985 Y21.342 E11.41559
G1 X142.699 Y21.976 E11.44735
G1 X143.357 Y22.668 E11.47911
G1 X143.955 Y23.412 E11.51086
G1 X144.489 Y24.204 E11.54263
G1 X144.954 Y25.038 E11.57439
G1 X145.349 Y25.907 E11.60614
G1 X145.668 Y26.807 E11.63789
G1 X145.912 Y27.73 E11.66965
G1 X146.077 Y28.671 E11.70142
G1 X146.172 Y29.854 E11.7409
G1 X146.181 Y30.174 E11.75154
G1 X146.186 Y30.494 E11.76219
G1 X146.186 Y79 E13.3755
G1 X146.185 Y79.141 E13.38019
G1 X146.176 Y79.868 E13.40438
G1 X146.124 Y80.821 E13.43612
G1 X145.993 Y81.767 E13.46789
G1 X145.783 Y82.699 E13.49966
G1 X145.496 Y83.609 E13.5314
G1 X145.133 Y84.492 E13.56315
G1 X144.698 Y85.342 E13.59491
G1 X144.193 Y86.153 E13.62668
G1 X143.623 Y86.918 E13.65842
G1 X142.99 Y87.633 E13.69018
G1 X142.3 Y88.293 E13.72193
G1 X141.556 Y88.892 E13.7537
G1 X140.766 Y89.427 E13.78544
G1 X139.933 Y89.894 E13.8172
G1 X139.064 Y90.29 E13.84896
G1 X138.165 Y90.612 E13.88072
G1 X137.242 Y90.857 E13.91249
G1 X136.302 Y91.024 E13.94424
G1 X135.097 Y91.123 E13.98445
G1 X134.776 Y91.132 E13.99513
G1 X134.456 Y91.136 E14.00578
G1 X85.921 Y91.136 E15.62006
G1 X85.774 Y91.135 E15.62495
G1 X85.076 Y91.126 E15.64817
G1 X84.123 Y91.074 E15.67991
G1 X83.177 Y90.942 E15.71168
G1 X82.246 Y90.731 E15.74343
G1 X81.335 Y90.444 E15.7752
G1 X80.452 Y90.081 E15.80695
G1 X79.603 Y89.645 E15.83869
G1 X78.792 Y89.14 E15.87047
G1 X78.027 Y88.569 E15.90222
G1 X77.313 Y87.936 E15.93396
G1 X76.653 Y87.245 E15.96574
G1 X76.054 Y86.502 E15.99748
G1 X75.52 Y85.711 E16.02922
G1 X75.053 Y84.878 E16.06099
G1 X74.658 Y84.009 E16.09274
G1 X74.336 Y83.11 E16.1245
G1 X74.092 Y82.187 E16.15625
G1 X73.925 Y81.247 E16.188
G1 X73.827 Y80.035 E16.22845
G1 X73.818 Y79.702 E16.23953
G1 X73.814 Y79.394 E16.24977
G1 X73.814 Y30.838 E17.86475
G1 X73.815 Y30.684 E17.86987
G1 X73.824 Y30.019 E17.89199
G1 X73.877 Y29.065 E17.92377
G1 X74.009 Y28.12 E17.95551
G1 X74.221 Y27.189 E17.98727
G1 X74.389 Y26.66 E18.00573
G0 F1350 X74.509 Y26.279
G0 F7500 X74.908 Y26.353
G1 F1500 X75.271 Y25.488 E18.03693
G1 X75.706 Y24.657 E18.06812
G1 X76.21 Y23.867 E18.09929
G1 X76.78 Y23.122 E18.13049
G1 X77.412 Y22.428 E18.16171
G1 X78.1 Y21.791 E18.1929
G1 X78.84 Y21.215 E18.22409
G1 X79.626 Y20.703 E18.25529
G1 X80.453 Y20.261 E18.28647
G1 X81.315 Y19.891 E18.31767
G1 X82.205 Y19.595 E18.34887
G1 X83.117 Y19.377 E18.38006
G1 X84.044 Y19.236 E18.41124
G1 X84.915 Y19.177 E18.44028
G1 X85.236 Y19.168 E18.45096
G1 X85.544 Y19.164 E18.46121
G1 X134.079 Y19.164 E20.07549
G1 X134.237 Y19.165 E20.08074
G1 X134.935 Y19.175 E20.10396
G1 X135.871 Y19.229 E20.13514
G1 X136.799 Y19.361 E20.16632
G1 X137.713 Y19.573 E20.19753
G1 X138.605 Y19.862 E20.22871
G1 X139.47 Y20.225 E20.25991
G1 X140.3 Y20.661 E20.2911
G1 X141.091 Y21.166 E20.32231
G1 X141.835 Y21.737 E20.3535
G1 X142.528 Y22.369 E20.3847
G1 X143.165 Y23.057 E20.41588
G1 X143.74 Y23.798 E20.44708
G1 X144.251 Y24.584 E20.47826
G1 X144.693 Y25.412 E20.50948
G1 X145.062 Y26.274 E20.54066
G1 X145.357 Y27.164 E20.57185
G1 X145.575 Y28.076 E20.60304
G1 X145.715 Y29.004 E20.63425
G1 X145.773 Y29.865 E20.66295
G1 X145.782 Y30.185 E20.6736
G1 X145.786 Y30.494 E20.68388
G1 X145.786 Y79 E22.29719
G1 X145.785 Y79.136 E22.30172
G1 X145.776 Y79.863 E22.3259
G1 X145.725 Y80.8 E22.35711
G1 X145.593 Y81.728 E22.38829
G1 X145.384 Y82.642 E22.41947
G1 X145.097 Y83.535 E22.45067
G1 X144.735 Y84.401 E22.48189
G1 X144.301 Y85.232 E22.51307
G1 X143.797 Y86.023 E22.54426
G1 X143.228 Y86.768 E22.57544
G1 X142.597 Y87.463 E22.60667
G1 X141.91 Y88.101 E22.63785
G1 X141.171 Y88.678 E22.66903
G1 X140.385 Y89.19 E22.70023
G1 X139.559 Y89.633 E22.73141
G1 X138.697 Y90.005 E22.76263
G1 X137.808 Y90.301 E22.7938
G1 X136.896 Y90.521 E22.825
G1 X135.969 Y90.662 E22.85619
G1 X135.085 Y90.723 E22.88566
G1 X134.764 Y90.732 E22.89634
G1 X134.456 Y90.736 E22.90658
G1 X85.921 Y90.736 E24.52087
G1 X85.779 Y90.735 E24.52559
G1 X85.081 Y90.726 E24.54881
G1 X84.145 Y90.674 E24.57999
G1 X83.216 Y90.542 E24.61119
G1 X82.302 Y90.332 E24.64239
G1 X81.409 Y90.045 E24.67358
G1 X80.544 Y89.682 E24.70478
G1 X79.713 Y89.248 E24.73597
G1 X78.922 Y88.744 E24.76716
G1 X78.177 Y88.174 E24.79836
G1 X77.483 Y87.543 E24.82956
G1 X76.846 Y86.856 E24.86072
G1 X76.269 Y86.116 E24.89193
G1 X75.757 Y85.33 E24.92313
G1 X75.314 Y84.503 E24.95433
G1 X74.943 Y83.642 E24.98552
G1 X74.647 Y82.752 E25.01671
G1 X74.428 Y81.84 E25.04791
G1 X74.287 Y80.913 E25.07909
G1 X74.227 Y80.024 E25.10873
G1 X74.218 Y79.691 E25.11981
G1 X74.214 Y79.394 E25.12969
G1 X74.214 Y30.838 E26.74467
G1 X74.215 Y30.689 E26.74962
G1 X74.224 Y30.024 E26.77174
G1 X74.277 Y29.088 E26.80292
G1 X74.409 Y28.159 E26.83413
G1 X74.62 Y27.245 E26.86533
G1 X74.786 Y26.733 E26.88323
G0 F1350 X74.908 Y26.353
G0 F7500 X75.306 Y26.428
G1 F1500 X75.669 Y25.582 E26.91385
G1 X76.103 Y24.77 E26.94448
G1 X76.606 Y23.999 E26.97509
G1 X77.175 Y23.275 E27.00572
G1 X77.803 Y22.603 E27.03631
G1 X78.488 Y21.987 E27.06695
G1 X79.224 Y21.434 E27.09757
G1 X80.005 Y20.946 E27.1282
G1 X80.825 Y20.528 E27.15881
G1 X81.679 Y20.183 E27.18945
G1 X82.559 Y19.913 E27.22006
G1 X83.459 Y19.721 E27.25067
G1 X84.373 Y19.607 E27.28131
G1 X84.926 Y19.577 E27.29973
G1 X85.247 Y19.568 E27.31041
G1 X85.544 Y19.564 E27.32029
G1 X134.079 Y19.564 E28.93457
G1 X134.231 Y19.565 E28.93962
G1 X134.929 Y19.575 E28.96284
G1 X135.848 Y19.628 E28.99346
G1 X136.759 Y19.761 E29.02408
G1 X137.655 Y19.972 E29.0547
G1 X138.529 Y20.26 E29.0853
G1 X139.376 Y20.623 E29.11595
G1 X140.187 Y21.058 E29.14656
G1 X140.957 Y21.562 E29.17717
G1 X141.681 Y22.131 E29.2078
G1 X142.353 Y22.761 E29.23843
G1 X142.968 Y23.446 E29.26905
G1 X143.521 Y24.182 E29.29967
G1 X144.008 Y24.963 E29.33028
G1 X144.425 Y25.784 E29.36091
G1 X144.77 Y26.638 E29.39155
G1 X145.039 Y27.518 E29.42215
G1 X145.231 Y28.419 E29.45279
G1 X145.344 Y29.332 E29.48339
G1 X145.373 Y29.876 E29.50151
G1 X145.382 Y30.196 E29.51216
G1 X145.386 Y30.494 E29.52207
G1 X145.386 Y79 E31.13539
G1 X145.385 Y79.131 E31.13974
G1 X145.376 Y79.858 E31.16392
G1 X145.325 Y80.777 E31.19454
G1 X145.194 Y81.689 E31.22518
G1 X144.984 Y82.585 E31.25579
G1 X144.698 Y83.46 E31.28641
G1 X144.337 Y84.307 E31.31703
G1 X143.903 Y85.119 E31.34765
G1 X143.401 Y85.891 E31.37828
G1 X142.833 Y86.616 E31.40892
G1 X142.205 Y87.289 E31.43953
G1 X141.521 Y87.905 E31.47015
G1 X140.786 Y88.459 E31.50076
G1 X140.006 Y88.948 E31.53138
G1 X139.186 Y89.367 E31.56201
G1 X138.333 Y89.713 E31.59262
G1 X137.453 Y89.984 E31.62325
G1 X136.553 Y90.177 E31.65386
G1 X135.639 Y90.292 E31.6845
G1 X135.074 Y90.323 E31.70332
G1 X134.753 Y90.332 E31.714
G1 X134.456 Y90.336 E31.72388
G1 X85.921 Y90.336 E33.33816
G1 X85.784 Y90.335 E33.34272
G1 X85.086 Y90.326 E33.36594
G1 X84.167 Y90.274 E33.39655
G1 X83.256 Y90.143 E33.42716
G1 X82.36 Y89.933 E33.45777
G1 X81.485 Y89.646 E33.4884
G1 X80.638 Y89.284 E33.51904
G1 X79.826 Y88.85 E33.54966
G1 X79.055 Y88.348 E33.58026
G1 X78.33 Y87.78 E33.61089
G1 X77.657 Y87.151 E33.64153
G1 X77.042 Y86.467 E33.67213
G1 X76.488 Y85.732 E33.70274
G1 X76 Y84.951 E33.73337
G1 X75.581 Y84.131 E33.764
G1 X75.235 Y83.278 E33.79461
G1 X74.965 Y82.398 E33.82523
G1 X74.772 Y81.497 E33.85587
G1 X74.658 Y80.584 E33.88648
G1 X74.627 Y80.013 E33.9055
G1 X74.618 Y79.68 E33.91658
G1 X74.614 Y79.394 E33.92609
G1 X74.614 Y30.838 E35.54107
G1 X74.615 Y30.695 E35.54582
G1 X74.624 Y30.03 E35.56794
G1 X74.676 Y29.11 E35.59859
G1 X74.808 Y28.199 E35.62921
G1 X75.019 Y27.303 E35.65983
G1 X75.182 Y26.808 E35.67716
G0 F1350 X75.306 Y26.428
G0 F7500 X75.705 Y26.505
G1 F1500 X76.067 Y25.678 E35.70718
G1 X76.5 Y24.886 E35.73721
G1 X77.002 Y24.135 E35.76725
G1 X77.569 Y23.431 E35.79732
G1 X78.195 Y22.781 E35.82733
G1 X78.876 Y22.188 E35.85737
G1 X79.608 Y21.658 E35.88742
G1 X80.383 Y21.195 E35.91745
G1 X81.196 Y20.802 E35.94748
G1 X82.041 Y20.482 E35.97754
G1 X82.91 Y20.239 E36.00755
G1 X83.798 Y20.073 E36.03759
G1 X84.937 Y19.977 E36.07561
G1 X85.258 Y19.968 E36.08629
G1 X85.544 Y19.964 E36.09581
G1 X134.079 Y19.964 E37.71009
G1 X134.225 Y19.965 E37.71494
G1 X134.923 Y19.975 E37.73816
G1 X135.825 Y20.028 E37.76821
G1 X136.718 Y20.16 E37.79824
G1 X137.596 Y20.371 E37.82827
G1 X138.452 Y20.659 E37.85831
G1 X139.279 Y21.021 E37.88834
G1 X140.071 Y21.456 E37.91839
G1 X140.822 Y21.958 E37.94843
G1 X141.525 Y22.525 E37.97847
G1 X142.175 Y23.152 E38.00851
G1 X142.767 Y23.834 E38.03855
G1 X143.297 Y24.565 E38.06858
G1 X143.759 Y25.341 E38.09862
G1 X144.152 Y26.154 E38.12865
G1 X144.47 Y26.999 E38.15868
G1 X144.713 Y27.869 E38.18873
G1 X144.878 Y28.757 E38.21877
G1 X144.973 Y29.887 E38.25648
G1 X144.982 Y30.207 E38.26713
G1 X144.986 Y30.494 E38.27668
G1 X144.986 Y79 E39.88999
G1 X144.985 Y79.126 E39.89418
G1 X144.976 Y79.853 E39.91837
G1 X144.925 Y80.755 E39.94841
G1 X144.794 Y81.649 E39.97847
G1 X144.585 Y82.527 E40.00848
G1 X144.299 Y83.384 E40.03853
G1 X143.938 Y84.212 E40.06858
G1 X143.506 Y85.004 E40.09858
G1 X143.005 Y85.756 E40.12864
G1 X142.439 Y86.46 E40.15868
G1 X141.814 Y87.111 E40.1887
G1 X141.133 Y87.705 E40.21875
G1 X140.402 Y88.236 E40.2488
G1 X139.628 Y88.7 E40.27882
G1 X138.815 Y89.094 E40.30887
G1 X137.971 Y89.414 E40.33889
G1 X137.101 Y89.659 E40.36895
G1 X136.214 Y89.825 E40.39896
G1 X135.063 Y89.923 E40.43738
G1 X134.742 Y89.932 E40.44807
G1 X134.456 Y89.936 E40.45758
G1 X85.921 Y89.936 E42.07186
G1 X85.789 Y89.935 E42.07625
G1 X85.091 Y89.926 E42.09947
G1 X84.19 Y89.875 E42.12948
G1 X83.296 Y89.743 E42.15954
G1 X82.418 Y89.534 E42.18956
G1 X81.561 Y89.247 E42.21962
G1 X80.734 Y88.886 E42.24963
G1 X79.941 Y88.453 E42.27968
G1 X79.19 Y87.952 E42.30971
G1 X78.486 Y87.386 E42.33975
G1 X77.835 Y86.76 E42.36979
G1 X77.242 Y86.079 E42.39982
G1 X76.712 Y85.348 E42.42986
G1 X76.248 Y84.573 E42.4599
G1 X75.854 Y83.76 E42.48995
G1 X75.534 Y82.916 E42.51997
G1 X75.29 Y82.046 E42.55002
G1 X75.124 Y81.158 E42.58007
G1 X75.027 Y80.003 E42.61862
G1 X75.018 Y79.67 E42.6297
G1 X75.014 Y79.394 E42.63888
G1 X75.014 Y30.838 E44.25386
G1 X75.015 Y30.7 E44.25845
G1 X75.024 Y30.035 E44.28057
G1 X75.076 Y29.133 E44.31062
G1 X75.208 Y28.24 E44.34064
G1 X75.418 Y27.362 E44.37067
G1 X75.578 Y26.884 E44.38744
G0 F1350 X75.705 Y26.505
G1 F1500 E38.38744
G1 F300 Z0.4
;MESH:AIl_In_One_3D_printer_test_micro.stl
G0 F7500 X86.214 Y31.164 Z0.4
;TYPE:WALL-INNER
G1 F300 Z0.2
G1 F1500 E44.38744
G1 X133.786 Y31.164 E45.96969
G1 X133.786 Y78.736 E47.55194
G1 X86.214 Y78.736 E49.13419
G1 X86.214 Y31.564 E50.70314
G0 F1350 X86.214 Y31.164
G0 F7500 X85.814 Y30.764
G1 F1500 X134.186 Y30.764 E52.31199
G1 X134.186 Y79.136 E53.92085
G1 X85.814 Y79.136 E55.52971
G1 X85.814 Y31.164 E57.12527
G0 F1350 X85.814 Y30.764
G0 F7500 X85.414 Y30.364
;TYPE:WALL-OUTER
G1 F1500 X134.586 Y30.364 E58.67896
G1 X134.586 Y79.536 E60.23266
G1 X85.414 Y79.536 E61.78635
G1 X85.414 Y30.764 E63.32741
G0 F1350 X85.414 Y30.364
G0 F7500 X85.814 Y30.364
G0 X85.854 Y30.804
G0 X86.604 Y31.554
;TYPE:SKIN
G1 F1500 X133.396 Y31.554 E64.88371
G1 X133.396 Y78.346 E66.44002
G1 X86.604 Y78.346 E67.99633
G1 X86.604 Y31.954 E69.53933
G0 F1350 X86.604 Y31.554
