;FLAVOR:Marlin
;TIME:3382
;Filament used: 2.10814m
;Layer height: 0.2
;MINX:73.618
;MINY:78.219
;MINZ:0.2
;MAXX:146.038
;MAXY:142.505
;MAXZ:42.8
;Generated with Cura_SteamEngine 4.4.0
M82 ;absolute extrusion mode

;
;********************************************
;***********BEGIN START CODE*****************
;********************************************
;

G28

M104 S195 ;Start heating extruder
M140 S50 ;Start heating bed

;M201 X500.00 Y500.00 Z100.00 E5000.00 ;Setup machine max acceleration
;M203 X500.00 Y500.00 Z10.00 E50.00 ;Setup machine max feedrate
;M204 P500.00 R1000.00 T500.00 ;Setup Print/Retract/Travel acceleration
;M205 X8.00 Y8.00 Z0.40 E5.00 ;Setup Jerk
M220 S100 ;Reset Feedrate
M221 S100 ;Reset Flowrate

M190 S50 ;Wait for bed to reach temp before proceeding

G28 Z;Home

M109 S195 ;Wait for extruder to reach temp before proceeding
M190 S50 ;Wait for bed to reach temp before proceeding

G92 E0 ;Reset Extruder
G1 Z2.0 F3000 ;Move Z Axis up
G1 X2.0 Y2 Z0.28 F5000.0 ;Move to start position
G1 X2.0 Y218.0 Z0.28 F1500.0 E15 ;Draw the first line
G1 X3.0 Y218.0 Z0.28 F5000.0 ;Move to side 1mm
G1 X3.0 Y2 Z0.28 F1500.0 E30 ;Draw the second line
G92 E0 ;Reset Extruder
G1 Z2.0 F3000 ;Move Z Axis up

;
;********************************************
;***********END of START CODE*****************
;********************************************
;
G92 E0
G92 E0
G1 F1500 E-4
;LAYER_COUNT:214
;LAYER:0
M107
G1 F300 Z0.4
G0 F7500 X80.874 Y84.834 Z0.4
;TYPE:SKIRT
G1 F300 Z0.2
G1 F1500 E0
G1 X81.238 Y84.491 E0.01663
G1 X81.586 Y84.177 E0.03222
G1 X82.115 Y83.728 E0.0553
G1 X82.828 Y83.157 E0.08568
G1 X83.571 Y82.608 E0.11641
G1 X84.439 Y82.018 E0.15132
G1 X85.376 Y81.443 E0.18788
G1 X86.352 Y80.905 E0.22495
G1 X87.328 Y80.424 E0.26114
G1 X88.375 Y79.967 E0.29914
G1 X89.395 Y79.577 E0.33546
G1 X90.364 Y79.257 E0.3694
G1 X90.788 Y79.126 E0.38416
G1 X91.051 Y79.05 E0.39326
G1 X91.574 Y78.912 E0.41125
G1 X92.02 Y78.805 E0.42651
G1 X92.535 Y78.693 E0.44404
G1 X93.151 Y78.574 E0.46491
G1 X93.752 Y78.474 E0.48517
G1 X94.059 Y78.431 E0.49548
G1 X94.607 Y78.367 E0.51383
G1 X95.621 Y78.273 E0.5477
G1 X96.668 Y78.223 E0.58256
G1 X97.783 Y78.219 E0.61965
G1 X98.816 Y78.261 E0.65404
G1 X99.765 Y78.341 E0.68571
G1 X100.518 Y78.429 E0.71093
G1 X100.933 Y78.491 E0.72488
G1 X101.248 Y78.542 E0.7355
G1 X101.784 Y78.637 E0.7536
G1 X102.5 Y78.787 E0.77793
G1 X103.091 Y78.93 E0.79816
G1 X103.43 Y79.017 E0.8098
G1 X103.854 Y79.133 E0.82442
G1 X104.527 Y79.339 E0.84783
G1 X105.194 Y79.565 E0.87125
G1 X105.518 Y79.68 E0.88269
G1 X105.822 Y79.793 E0.89347
G1 X106.464 Y80.054 E0.91652
G1 X107.107 Y80.337 E0.93989
G1 X107.438 Y80.488 E0.95199
G1 X107.748 Y80.636 E0.96341
G1 X108.428 Y80.988 E0.98888
G1 X109.248 Y81.447 E1.02014
G1 X109.575 Y81.637 E1.03272
G1 X109.804 Y81.775 E1.04161
G1 X110.418 Y82.172 E1.06593
G1 X111.006 Y82.578 E1.08969
G1 X111.283 Y82.776 E1.10102
G1 X111.565 Y82.983 E1.11265
G1 X112.137 Y83.43 E1.1368
G1 X112.689 Y83.89 E1.1607
G1 X112.947 Y84.111 E1.172
G1 X113.23 Y84.361 E1.18455
G1 X113.753 Y84.853 E1.20844
G1 X114.246 Y85.345 E1.2316
G1 X114.491 Y85.596 E1.24327
G1 X114.728 Y85.847 E1.25475
G1 X115.217 Y86.399 E1.27928
G1 X115.684 Y86.96 E1.30356
G1 X115.903 Y87.231 E1.31514
G1 X116.142 Y87.536 E1.32803
G1 X116.56 Y88.104 E1.35149
G1 X116.943 Y88.658 E1.37389
G1 X117.135 Y88.944 E1.38535
G1 X117.381 Y89.323 E1.40037
G1 X117.573 Y89.629 E1.41239
G1 X117.958 Y90.264 E1.43709
G1 X118.049 Y90.416 E1.44298
G1 X118.472 Y91.138 E1.47081
G1 X119.786 Y93.245 E1.5534
G1 X121.172 Y95.332 E1.63673
G1 X122.605 Y97.361 E1.71935
G1 X124.1 Y99.359 E1.80235
G1 X125.643 Y101.302 E1.88487
G1 X127.266 Y103.231 E1.96872
G1 X128.933 Y105.103 E2.05209
G1 X130.618 Y106.891 E2.1338
G1 X132.39 Y108.666 E2.21722
G1 X134.208 Y110.389 E2.30053
G1 X136.049 Y112.036 E2.38269
G1 X137.963 Y113.655 E2.46607
G1 X139.963 Y115.25 E2.55115
G1 X141.268 Y116.244 E2.60572
G1 X142.016 Y116.864 E2.63803
G1 X142.71 Y117.543 E2.67032
G1 X143.346 Y118.277 E2.70263
G1 X143.92 Y119.061 E2.73494
G1 X144.427 Y119.89 E2.76726
G1 X144.893 Y120.821 E2.80189
G1 X144.997 Y121.054 E2.81038
G1 X145.356 Y121.957 E2.8427
G1 X145.64 Y122.886 E2.87501
G1 X145.846 Y123.835 E2.90731
G1 X145.974 Y124.798 E2.93962
G1 X146.02 Y125.651 E2.96803
G1 X146.036 Y126.539 E2.99757
G1 X146.038 Y126.757 E3.00482
G1 X146.037 Y129.039 E3.08072
G1 X146.037 Y129.136 E3.08395
G1 X146.03 Y129.946 E3.11089
G1 X145.981 Y130.916 E3.14319
G1 X145.853 Y131.879 E3.1755
G1 X145.646 Y132.828 E3.20781
G1 X145.362 Y133.757 E3.24012
G1 X145.003 Y134.659 E3.27241
G1 X144.57 Y135.529 E3.30473
G1 X144.067 Y136.36 E3.33704
G1 X143.498 Y137.148 E3.36937
G1 X142.866 Y137.885 E3.40166
G1 X142.153 Y138.588 E3.43496
G1 X141.674 Y139.022 E3.45646
G1 X140.928 Y139.645 E3.48879
G1 X140.133 Y140.203 E3.52109
G1 X139.295 Y140.694 E3.55339
G1 X138.42 Y141.115 E3.58569
G1 X137.512 Y141.462 E3.61802
G1 X136.58 Y141.734 E3.65031
G1 X135.628 Y141.928 E3.68263
G1 X134.663 Y142.043 E3.71495
G1 X133.599 Y142.077 E3.75036
G1 X132.727 Y142.066 E3.77936
G1 X130.213 Y142.046 E3.86298
G1 X129.413 Y142.052 E3.88959
G1 X126.848 Y142.113 E3.97493
G1 X124.373 Y142.243 E4.05736
G1 X121.602 Y142.467 E4.14982
G1 X120.631 Y142.505 E4.18214
G1 X119.735 Y142.469 E4.21197
G1 X119.456 Y142.447 E4.22128
G1 X116.894 Y142.285 E4.30666
G1 X114.335 Y142.195 E4.39182
G1 X112.506 Y142.176 E4.45266
G1 X111.501 Y142.176 E4.48609
G1 X110.517 Y142.135 E4.51884
G1 X110.295 Y142.116 E4.52625
G1 X107.795 Y141.939 E4.60961
G1 X105.263 Y141.833 E4.6939
G1 X101.659 Y141.786 E4.81378
G1 X100.69 Y141.733 E4.84606
G1 X99.727 Y141.601 E4.87839
G1 X98.779 Y141.391 E4.91068
G1 X97.851 Y141.102 E4.94301
G1 X96.95 Y140.739 E4.97532
G1 X96.083 Y140.303 E5.0076
G1 X95.253 Y139.796 E5.03994
G1 X94.469 Y139.224 E5.07222
G1 X93.734 Y138.588 E5.10455
G1 X93.276 Y138.135 E5.12598
G1 X93.171 Y138.025 E5.13103
G1 X92.53 Y137.295 E5.16335
G1 X91.951 Y136.515 E5.19565
G1 X91.278 Y135.398 E5.23903
G1 X91.098 Y135.058 E5.25182
G1 X91.03 Y134.926 E5.25676
G1 X90.154 Y133.22 E5.32055
G1 X88.957 Y131.042 E5.40321
G1 X87.684 Y128.876 E5.48677
G1 X86.358 Y126.757 E5.56991
G1 X84.972 Y124.676 E5.65307
G1 X83.529 Y122.637 E5.73615
G1 X82.039 Y120.653 E5.81868
G1 X80.48 Y118.695 E5.90192
G1 X79.092 Y117.041 E5.97374
G1 X78.765 Y116.633 E5.99113
G1 X78.287 Y116.009 E6.01727
G1 X78.034 Y115.666 E6.03145
G1 X77.784 Y115.314 E6.04581
G1 X77.414 Y114.762 E6.06791
G1 X77.182 Y114.393 E6.08241
G1 X76.964 Y114.031 E6.09646
G1 X76.648 Y113.486 E6.11742
G1 X76.49 Y113.205 E6.12814
G1 X76.391 Y113.023 E6.13503
G1 X76.203 Y112.662 E6.14857
G1 X76.102 Y112.46 E6.15608
G1 X75.955 Y112.156 E6.16731
G1 X75.698 Y111.603 E6.18759
G1 X75.489 Y111.126 E6.20491
G1 X75.325 Y110.728 E6.21923
G1 X75.131 Y110.225 E6.23716
G1 X74.898 Y109.577 E6.26007
G1 X74.78 Y109.231 E6.27222
G1 X74.715 Y109.031 E6.27922
G1 X74.595 Y108.641 E6.29279
G1 X74.539 Y108.446 E6.29954
G1 X74.456 Y108.139 E6.31012
G1 X74.29 Y107.496 E6.3322
G1 X74.223 Y107.224 E6.34152
G1 X74.175 Y107.018 E6.34856
G1 X74.03 Y106.296 E6.37305
G1 X73.888 Y105.451 E6.40155
G1 X73.798 Y104.809 E6.42311
G1 X73.743 Y104.318 E6.43954
G1 X73.701 Y103.859 E6.45487
G1 X73.659 Y103.281 E6.47415
G1 X73.638 Y102.911 E6.48647
G1 X73.629 Y102.692 E6.49376
G1 X73.619 Y102.248 E6.50854
G1 X73.618 Y101.961 E6.51808
G1 X73.621 Y101.656 E6.52823
G1 X73.628 Y101.343 E6.53864
G1 X73.641 Y100.989 E6.55042
G1 X73.679 Y100.265 E6.57453
G1 X73.724 Y99.688 E6.59378
G1 X73.753 Y99.403 E6.60331
G1 X73.814 Y98.908 E6.6199
G1 X73.934 Y98.079 E6.64776
G1 X74.041 Y97.455 E6.66882
G1 X74.111 Y97.105 E6.68069
G1 X74.205 Y96.677 E6.69526
G1 X74.34 Y96.112 E6.71458
G1 X74.429 Y95.764 E6.72653
G1 X74.483 Y95.565 E6.73339
G1 X74.567 Y95.27 E6.74359
G1 X74.679 Y94.896 E6.75658
G1 X74.789 Y94.55 E6.76865
G1 X74.856 Y94.349 E6.7757
G1 X74.981 Y93.992 E6.78828
G1 X75.2 Y93.399 E6.80931
G1 X75.321 Y93.085 E6.8205
G1 X75.438 Y92.794 E6.83093
G1 X75.726 Y92.136 E6.85482
G1 X76.045 Y91.464 E6.87956
G1 X76.222 Y91.106 E6.89284
G1 X76.36 Y90.839 E6.90284
G1 X76.664 Y90.289 E6.92374
G1 X77.058 Y89.617 E6.94965
G1 X77.263 Y89.28 E6.96277
G1 X77.44 Y89 E6.97379
G1 X77.829 Y88.422 E6.99696
G1 X78.262 Y87.819 E7.02165
G1 X78.49 Y87.513 E7.03434
G1 X78.626 Y87.336 E7.04177
G1 X79.054 Y86.81 E7.06432
G1 X79.734 Y86.023 E7.09892
G1 X79.99 Y85.737 E7.11168
G1 X80.133 Y85.582 E7.1187
G1 X80.309 Y85.4 E7.12712
G0 F1350 X80.537 Y85.165
G0 X80.874 Y84.834
G0 F7500 X81.155 Y85.119
G1 F1500 X81.506 Y84.788 E7.14316
G1 X81.854 Y84.474 E7.15875
G1 X82.365 Y84.04 E7.18105
G1 X83.078 Y83.469 E7.21143
G1 X83.795 Y82.939 E7.24109
G1 X84.663 Y82.349 E7.276
G1 X85.569 Y81.793 E7.31135
G1 X86.545 Y81.255 E7.34842
G1 X87.488 Y80.791 E7.38337
G1 X88.535 Y80.334 E7.42137
G1 X89.52 Y79.957 E7.45645
G1 X90.489 Y79.637 E7.49039
G1 X90.899 Y79.51 E7.50467
G1 X91.162 Y79.434 E7.51377
G1 X91.667 Y79.301 E7.53114
G1 X92.113 Y79.194 E7.5464
G1 X92.611 Y79.086 E7.56334
G1 X93.227 Y78.967 E7.58421
G1 X93.808 Y78.87 E7.6038
G1 X94.115 Y78.827 E7.61411
G1 X94.644 Y78.766 E7.63182
G1 X95.658 Y78.672 E7.6657
G1 X96.669 Y78.623 E7.69936
G1 X97.784 Y78.619 E7.73645
G1 X98.783 Y78.659 E7.7697
G1 X99.732 Y78.739 E7.80138
G1 X100.458 Y78.824 E7.82569
G1 X100.873 Y78.886 E7.83964
G1 X101.179 Y78.936 E7.84996
G1 X101.715 Y79.031 E7.86806
G1 X102.406 Y79.176 E7.89154
G1 X102.997 Y79.319 E7.91177
G1 X103.324 Y79.403 E7.923
G1 X103.748 Y79.519 E7.93762
G1 X104.398 Y79.718 E7.96023
G1 X105.065 Y79.944 E7.98365
G1 X105.379 Y80.055 E7.99473
G1 X105.683 Y80.168 E8.00552
G1 X106.303 Y80.42 E8.02777
G1 X106.946 Y80.703 E8.05114
G1 X107.266 Y80.849 E8.06284
G1 X107.576 Y80.997 E8.07426
G1 X108.232 Y81.337 E8.09884
G1 X109.052 Y81.796 E8.1301
G1 X109.368 Y81.98 E8.14226
G1 X109.597 Y82.118 E8.15115
G1 X110.19 Y82.501 E8.17463
G1 X110.778 Y82.907 E8.1984
G1 X111.047 Y83.098 E8.20937
G1 X111.329 Y83.305 E8.221
G1 X111.881 Y83.737 E8.24432
G1 X112.433 Y84.197 E8.26822
G1 X112.682 Y84.411 E8.27914
G1 X112.965 Y84.661 E8.2917
G1 X113.471 Y85.136 E8.31478
G1 X113.964 Y85.628 E8.33794
G1 X114.2 Y85.87 E8.34919
G1 X114.437 Y86.121 E8.36067
G1 X114.91 Y86.655 E8.38439
G1 X115.377 Y87.216 E8.40867
G1 X115.588 Y87.478 E8.41986
G1 X115.827 Y87.783 E8.43275
G1 X116.231 Y88.331 E8.45539
G1 X116.614 Y88.885 E8.47779
G1 X116.799 Y89.161 E8.48885
G1 X117.045 Y89.54 E8.50387
G1 X117.231 Y89.837 E8.51553
G1 X117.616 Y90.472 E8.54023
G1 X117.704 Y90.619 E8.54593
G1 X118.121 Y91.331 E8.57337
G1 X119.447 Y93.456 E8.65668
G1 X120.856 Y95.578 E8.7414
G1 X122.273 Y97.586 E8.82314
G1 X123.786 Y99.607 E8.90711
G1 X125.336 Y101.558 E8.98999
G1 X126.962 Y103.491 E9.074
G1 X128.626 Y105.36 E9.15723
G1 X130.344 Y107.183 E9.24054
G1 X132.113 Y108.956 E9.32385
G1 X133.931 Y110.678 E9.40713
G1 X135.807 Y112.356 E9.49085
G1 X137.701 Y113.957 E9.57333
G1 X139.683 Y115.539 E9.65768
G1 X141.026 Y116.562 E9.71383
G1 X141.76 Y117.172 E9.74557
G1 X142.441 Y117.841 E9.77732
G1 X143.064 Y118.565 E9.80909
G1 X143.624 Y119.338 E9.84084
G1 X144.117 Y120.156 E9.87261
G1 X144.528 Y120.984 E9.90335
G1 X144.632 Y121.217 E9.91184
G1 X144.984 Y122.105 E9.94361
G1 X145.261 Y123.019 E9.97537
G1 X145.461 Y123.952 E10.00711
G1 X145.581 Y124.899 E10.03886
G1 X145.62 Y125.659 E10.06417
G1 X145.636 Y126.547 E10.09371
G1 X145.638 Y126.757 E10.1007
G1 X145.637 Y129.039 E10.1766
G1 X145.637 Y129.133 E10.17972
G1 X145.63 Y129.943 E10.20666
G1 X145.581 Y130.896 E10.2384
G1 X145.454 Y131.842 E10.27015
G1 X145.247 Y132.774 E10.3019
G1 X144.963 Y133.686 E10.33367
G1 X144.604 Y134.571 E10.36544
G1 X144.172 Y135.422 E10.39718
G1 X143.67 Y136.235 E10.42896
G1 X143.103 Y137.002 E10.46068
G1 X142.472 Y137.719 E10.49245
G1 X141.884 Y138.292 E10.51976
G1 X141.405 Y138.726 E10.54126
G1 X140.672 Y139.337 E10.573
G1 X139.889 Y139.884 E10.60476
G1 X139.064 Y140.364 E10.63651
G1 X138.201 Y140.773 E10.66827
G1 X137.307 Y141.109 E10.70004
G1 X136.389 Y141.369 E10.73177
G1 X135.451 Y141.55 E10.76355
G1 X134.502 Y141.653 E10.7953
G1 X133.604 Y141.677 E10.82517
G1 X132.73 Y141.666 E10.85425
G1 X130.213 Y141.646 E10.93796
G1 X129.401 Y141.652 E10.96497
G1 X126.817 Y141.714 E11.05094
G1 X124.353 Y141.843 E11.13301
G1 X121.569 Y142.068 E11.2259
G1 X120.615 Y142.105 E11.25766
G1 X119.766 Y142.071 E11.28592
G1 X119.439 Y142.046 E11.29683
G1 X116.899 Y141.885 E11.38148
G1 X114.353 Y141.795 E11.46621
G1 X112.51 Y141.776 E11.52751
G1 X111.501 Y141.776 E11.56107
G1 X110.551 Y141.736 E11.5927
G1 X110.362 Y141.72 E11.59901
G1 X107.806 Y141.539 E11.68423
G1 X105.284 Y141.433 E11.76819
G1 X101.665 Y141.386 E11.88857
G1 X100.711 Y141.334 E11.92034
G1 X99.766 Y141.202 E11.95208
G1 X98.834 Y140.991 E11.98386
G1 X97.924 Y140.704 E12.0156
G1 X97.041 Y140.341 E12.04735
G1 X96.191 Y139.905 E12.07913
G1 X95.381 Y139.4 E12.11087
G1 X94.616 Y138.829 E12.14262
G1 X93.566 Y137.858 E12.19019
G1 X93.461 Y137.748 E12.19525
G1 X92.831 Y137.031 E12.22699
G1 X92.264 Y136.263 E12.25874
G1 X91.632 Y135.211 E12.29956
G1 X91.452 Y134.871 E12.31236
G1 X91.386 Y134.744 E12.31712
G1 X90.509 Y133.037 E12.38095
G1 X89.294 Y130.826 E12.46486
G1 X88.025 Y128.666 E12.54818
G1 X86.699 Y126.547 E12.63132
G1 X85.315 Y124.47 E12.71433
G1 X83.847 Y122.394 E12.7989
G1 X82.351 Y120.404 E12.88171
G1 X80.78 Y118.43 E12.96562
G1 X79.399 Y116.784 E13.03708
G1 X79.082 Y116.389 E13.05392
G1 X78.604 Y115.765 E13.08007
G1 X78.36 Y115.434 E13.09374
G1 X78.11 Y115.082 E13.1081
G1 X77.753 Y114.549 E13.12944
G1 X77.521 Y114.18 E13.14394
G1 X77.31 Y113.83 E13.15753
G1 X76.994 Y113.285 E13.17849
G1 X76.842 Y113.014 E13.18882
G1 X76.743 Y112.832 E13.19571
G1 X76.561 Y112.483 E13.2088
G1 X76.46 Y112.281 E13.21631
G1 X76.318 Y111.988 E13.22714
G1 X76.061 Y111.435 E13.24742
G1 X75.859 Y110.973 E13.2642
G1 X75.695 Y110.575 E13.27851
G1 X75.507 Y110.089 E13.29584
G1 X75.274 Y109.441 E13.31875
G1 X75.16 Y109.108 E13.33045
G1 X75.095 Y108.908 E13.33745
G1 X74.98 Y108.531 E13.35056
G1 X74.924 Y108.336 E13.35731
G1 X74.843 Y108.039 E13.36755
G1 X74.677 Y107.396 E13.38963
G1 X74.612 Y107.133 E13.39864
G1 X74.564 Y106.927 E13.40568
G1 X74.425 Y106.229 E13.42935
G1 X74.283 Y105.384 E13.45785
G1 X74.196 Y104.764 E13.47867
G1 X74.141 Y104.273 E13.49511
G1 X74.1 Y103.83 E13.5099
G1 X74.058 Y103.252 E13.52918
G1 X74.038 Y102.894 E13.5411
G1 X74.029 Y102.675 E13.54839
G1 X74.019 Y102.247 E13.56263
G1 X74.018 Y101.96 E13.57218
G1 X74.021 Y101.665 E13.58199
G1 X74.028 Y101.352 E13.5924
G1 X74.041 Y101.009 E13.60382
G1 X74.079 Y100.285 E13.62793
G1 X74.122 Y99.729 E13.64648
G1 X74.151 Y99.444 E13.65601
G1 X74.21 Y98.965 E13.67206
G1 X74.33 Y98.136 E13.69992
G1 X74.433 Y97.533 E13.72027
G1 X74.503 Y97.183 E13.73214
G1 X74.594 Y96.77 E13.74621
G1 X74.729 Y96.205 E13.76553
G1 X74.815 Y95.868 E13.77709
G1 X74.869 Y95.669 E13.78395
G1 X74.95 Y95.385 E13.79377
G1 X75.062 Y95.011 E13.80676
G1 X75.168 Y94.676 E13.81845
G1 X75.235 Y94.475 E13.82549
G1 X75.356 Y94.131 E13.83762
G1 X75.575 Y93.538 E13.85865
G1 X75.692 Y93.234 E13.86948
G1 X75.809 Y92.943 E13.87991
G1 X76.087 Y92.307 E13.903
G1 X76.406 Y91.635 E13.92774
G1 X76.578 Y91.29 E13.94056
G1 X76.716 Y91.023 E13.95056
G1 X77.009 Y90.491 E13.97076
G1 X77.403 Y89.819 E13.99667
G1 X77.601 Y89.494 E14.00933
G1 X77.778 Y89.214 E14.02034
G1 X78.154 Y88.656 E14.04272
G1 X78.587 Y88.053 E14.06741
G1 X78.807 Y87.756 E14.07971
G1 X78.943 Y87.579 E14.08713
G1 X79.357 Y87.072 E14.1089
G1 X80.037 Y86.285 E14.1435
G1 X80.284 Y86.008 E14.15584
G1 X80.427 Y85.853 E14.16285
G1 X80.59 Y85.685 E14.17064
G0 F1350 X80.818 Y85.45
G0 X81.155 Y85.119
G0 F7500 X81.435 Y85.404
G1 F1500 X81.774 Y85.085 E14.18612
G1 X82.122 Y84.771 E14.20171
G1 X82.615 Y84.352 E14.22323
G1 X83.328 Y83.781 E14.25361
G1 X84.02 Y83.27 E14.28222
G1 X84.888 Y82.68 E14.31713
G1 X85.762 Y82.144 E14.35123
G1 X86.738 Y81.606 E14.3883
G1 X87.648 Y81.158 E14.42203
G1 X88.695 Y80.701 E14.46003
G1 X89.646 Y80.337 E14.4939
G1 X90.615 Y80.017 E14.52784
G1 X91.01 Y79.894 E14.5416
G1 X91.273 Y79.818 E14.5507
G1 X91.761 Y79.69 E14.56748
G1 X92.207 Y79.583 E14.58274
G1 X92.687 Y79.479 E14.59907
G1 X93.303 Y79.36 E14.61994
