;FLAVOR:Marlin
;TIME:7251
;Filament used: 6.71634m
;Layer height: 0.2
;MINX:96.221
;MINY:33.57
;MINZ:0.2
;MAXX:175.594
;MAXY:109.942
;MAXZ:40.2
;Generated with Cura_SteamEngine 4.4.0
M82 ;absolute extrusion mode

;
;********************************************
;***********BEGIN START CODE*****************
;********************************************
;

M104 S195 ;Start heating extruder
M140 S60 ;Start heating bed

;M201 X500.00 Y500.00 Z100.00 E5000.00 ;Setup machine max acceleration
;M203 X500.00 Y500.00 Z10.00 E50.00 ;Setup machine max feedrate
;M204 P500.00 R1000.00 T500.00 ;Setup Print/Retract/Travel acceleration
;M205 X8.00 Y8.00 Z0.40 E5.00 ;Setup Jerk
M220 S100 ;Reset Feedrate
M221 S100 ;Reset Flowrate

G28 XY

M109 S195 ;Wait for extruder to reach temp before proceeding
M190 S60 ;Wait for bed to reach temp before proceeding

G28 Z;Home

M109 S195 ;Wait for extruder to reach temp before proceeding
M190 S60 ;Wait for bed to reach temp before proceeding

G92 E0 ;Reset Extruder
G1 Z2.0 F3000 ;Move Z Axis up
G1 X2.0 Y2 Z0.28 F5000.0 ;Move to start position
G1 X2.0 Y218.0 Z0.28 F1500.0 E15 ;Draw the first line
G1 X3.0 Y218.0 Z0.28 F5000.0 ;Move to side 1mm
G1 X3.0 Y2 Z0.28 F1500.0 E30 ;Draw the second line
G92 E0 ;Reset Extruder
G1 Z2.0 F3000 ;Move Z Axis up

;
;********************************************
;***********END of START CODE*****************
;********************************************
;
G92 E0
G92 E0
G1 F1500 E-6
;LAYER_COUNT:200
;LAYER:0
M107
G1 F300 Z0.4
G0 F7500 X97.996 Y45.908 Z0.4
;TYPE:SKIRT
G1 F300 Z0.2
G1 F1500 E0
G1 X98.39 Y45.068 E0.03086
G1 X98.635 Y44.595 E0.04858
G1 X98.794 Y44.298 E0.05978
G1 X99.002 Y43.923 E0.07404
G1 X99.496 Y43.112 E0.10563
G1 X99.776 Y42.691 E0.12244
G1 X100.157 Y42.151 E0.14443
G1 X100.62 Y41.533 E0.17011
G1 X101.2 Y40.819 E0.2007
G1 X101.562 Y40.407 E0.21895
G1 X102.253 Y39.685 E0.25219
G1 X102.882 Y39.081 E0.28119
G1 X103.188 Y38.797 E0.29508
G1 X103.387 Y38.619 E0.30396
G1 X104.102 Y38.028 E0.33481
G1 X104.476 Y37.743 E0.35045
G1 X104.754 Y37.538 E0.36194
G1 X105.16 Y37.247 E0.37855
G1 X105.911 Y36.751 E0.40848
G1 X106.28 Y36.527 E0.42284
G1 X106.617 Y36.33 E0.43583
G1 X107.088 Y36.065 E0.4538
G1 X107.918 Y35.64 E0.48481
G1 X108.335 Y35.447 E0.5001
G1 X108.681 Y35.294 E0.51268
G1 X109.124 Y35.106 E0.52869
G1 X109.687 Y34.884 E0.54882
G1 X109.876 Y34.815 E0.55551
G1 X110.221 Y34.695 E0.56766
G1 X110.451 Y34.619 E0.57571
G1 X110.73 Y34.53 E0.58545
G1 X111.238 Y34.376 E0.60311
G1 X112.178 Y34.133 E0.6354
G1 X113.047 Y33.98 E0.66475
G1 X113.286 Y33.947 E0.67277
G1 X114.253 Y33.854 E0.70508
G1 X115.224 Y33.84 E0.73738
G1 X115.932 Y33.881 E0.76097
G1 X116.774 Y33.955 E0.78908
G1 X119.386 Y34.152 E0.87621
G1 X121.877 Y34.27 E0.95915
G1 X124.381 Y34.317 E1.04245
G1 X126.824 Y34.294 E1.12371
G1 X129.382 Y34.197 E1.20885
G1 X131.78 Y34.039 E1.28878
G1 X135.642 Y33.65 E1.41788
G1 X136.122 Y33.612 E1.43389
G1 X136.34 Y33.599 E1.44116
G1 X136.904 Y33.579 E1.45993
G1 X137.245 Y33.575 E1.47127
G1 X137.38 Y33.574 E1.47576
G1 X154.229 Y33.57 E2.03616
G1 X154.4 Y33.571 E2.04185
G1 X155.243 Y33.583 E2.06989
G1 X155.832 Y33.606 E2.08949
G1 X156.657 Y33.659 E2.11699
G1 X157.663 Y33.767 E2.15064
G1 X158.08 Y33.83 E2.16467
G1 X158.426 Y33.888 E2.17634
G1 X158.982 Y33.989 E2.19513
G1 X159.92 Y34.199 E2.2271
G1 X160.354 Y34.315 E2.24204
G1 X160.722 Y34.42 E2.25477
G1 X161.238 Y34.576 E2.2727
G1 X161.868 Y34.786 E2.29479
G1 X162.09 Y34.867 E2.30265
G1 X162.666 Y35.094 E2.32324
G1 X163.19 Y35.317 E2.34218
G1 X163.891 Y35.644 E2.36791
G1 X164.542 Y35.973 E2.39217
G1 X165.065 Y36.253 E2.4119
G1 X165.407 Y36.448 E2.42499
G1 X165.948 Y36.777 E2.44605
G1 X166.136 Y36.898 E2.45349
G1 X166.449 Y37.106 E2.46599
G1 X166.739 Y37.306 E2.47771
G1 X166.972 Y37.471 E2.4872
G1 X167.253 Y37.675 E2.49875
G1 X167.999 Y38.264 E2.53037
G1 X168.663 Y38.833 E2.55945
G1 X169.511 Y39.636 E2.59829
G1 X170.152 Y40.306 E2.62913
G1 X170.659 Y40.871 E2.65438
G1 X170.912 Y41.172 E2.66746
G1 X171.31 Y41.672 E2.68872
G1 X171.507 Y41.934 E2.69962
G1 X171.791 Y42.328 E2.71577
G1 X172.073 Y42.737 E2.7323
G1 X172.554 Y43.496 E2.76218
G1 X172.893 Y44.078 E2.78458
G1 X173.112 Y44.469 E2.79949
G1 X173.332 Y44.882 E2.81505
G1 X173.76 Y45.776 E2.84802
G1 X173.942 Y46.2 E2.86337
G1 X174.068 Y46.503 E2.87428
G1 X174.258 Y46.982 E2.89142
G1 X174.574 Y47.885 E2.92324
G1 X174.713 Y48.34 E2.93906
G1 X174.813 Y48.685 E2.95101
G1 X174.949 Y49.184 E2.96821
G1 X175.174 Y50.18 E3.00218
G1 X175.26 Y50.654 E3.0182
G1 X175.312 Y50.96 E3.02852
G1 X175.39 Y51.465 E3.04552
G1 X175.497 Y52.411 E3.07718
G1 X175.531 Y52.879 E3.09279
G1 X175.552 Y53.244 E3.10495
G1 X175.575 Y53.797 E3.12336
G1 X175.584 Y54.122 E3.13417
G1 X175.593 Y54.766 E3.15559
G1 X175.594 Y54.931 E3.16108
G1 X175.594 Y97.406 E4.57381
G1 X175.593 Y97.568 E4.57919
G1 X175.583 Y98.295 E4.60338
G1 X175.53 Y99.265 E4.63569
G1 X175.397 Y100.227 E4.66799
G1 X175.185 Y101.176 E4.70033
G1 X174.896 Y102.103 E4.73262
G1 X174.532 Y103.004 E4.76494
G1 X174.095 Y103.871 E4.79724
G1 X173.588 Y104.7 E4.82956
G1 X173.015 Y105.484 E4.86186
G1 X172.379 Y106.218 E4.89416
G1 X171.685 Y106.898 E4.92647
G1 X170.937 Y107.518 E4.95879
G1 X170.141 Y108.074 E4.99108
G1 X169.302 Y108.564 E5.0234
G1 X168.425 Y108.982 E5.05571
G1 X167.517 Y109.327 E5.08802
G1 X166.584 Y109.596 E5.12031
G1 X165.631 Y109.788 E5.15265
G1 X164.666 Y109.9 E5.18496
G1 X164.116 Y109.928 E5.20328
G1 X163.796 Y109.937 E5.21392
G1 X163.464 Y109.942 E5.22497
G1 X108.729 Y109.942 E7.04546
G1 X108.577 Y109.941 E7.05052
G1 X107.879 Y109.932 E7.07373
G1 X106.909 Y109.88 E7.10604
G1 X105.947 Y109.747 E7.13834
G1 X104.998 Y109.537 E7.17067
G1 X104.071 Y109.249 E7.20296
G1 X103.17 Y108.885 E7.23528
G1 X102.302 Y108.449 E7.26758
G1 X101.473 Y107.943 E7.29989
G1 X100.688 Y107.37 E7.33221
G1 X99.953 Y106.735 E7.36452
G1 X99.273 Y106.041 E7.39683
G1 X98.652 Y105.294 E7.42914
G1 X98.095 Y104.498 E7.46146
G1 X97.605 Y103.66 E7.49374
G1 X97.186 Y102.783 E7.52607
G1 X96.84 Y101.876 E7.55836
G1 X96.57 Y100.942 E7.59069
G1 X96.378 Y99.99 E7.623
G1 X96.265 Y99.025 E7.65531
G1 X96.235 Y98.452 E7.6744
G1 X96.226 Y98.119 E7.68548
G1 X96.222 Y97.8 E7.69609
G1 X96.221 Y58.66 E8.99789
G1 X96.221 Y58.644 E8.99842
G1 X96.226 Y54.863 E9.12418
G1 X96.227 Y54.692 E9.12986
G1 X96.239 Y53.934 E9.15508
G1 X96.249 Y53.619 E9.16556
G1 X96.265 Y53.243 E9.17808
G1 X96.283 Y52.924 E9.1887
G1 X96.315 Y52.465 E9.20401
G1 X96.403 Y51.626 E9.23207
G1 X96.459 Y51.232 E9.2453
G1 X96.528 Y50.806 E9.25966
G1 X96.602 Y50.394 E9.27358
G1 X96.751 Y49.69 E9.29751
G1 X96.897 Y49.09 E9.31805
G1 X97.046 Y48.536 E9.33713
G1 X97.145 Y48.201 E9.34875
G1 X97.379 Y47.493 E9.37355
G1 X97.613 Y46.853 E9.39622
G1 X97.823 Y46.318 E9.41533
G1 X97.841 Y46.276 E9.41685
G0 F1350 X97.996 Y45.908
G0 F7500 X98.365 Y46.063
G1 F1500 X98.745 Y45.252 E9.44664
G1 X98.99 Y44.779 E9.46436
G1 X99.144 Y44.492 E9.47519
G1 X99.352 Y44.117 E9.48945
G1 X99.829 Y43.334 E9.51995
G1 X100.109 Y42.913 E9.53676
G1 X100.477 Y42.391 E9.55801
G1 X100.94 Y41.773 E9.58369
G1 X101.5 Y41.083 E9.61325
G1 X101.862 Y40.671 E9.63149
G1 X102.53 Y39.973 E9.66362
G1 X103.159 Y39.369 E9.69263
G1 X103.455 Y39.095 E9.70604
G1 X103.654 Y38.917 E9.71492
G1 X104.344 Y38.347 E9.74469
G1 X104.718 Y38.062 E9.76033
G1 X104.987 Y37.863 E9.77146
G1 X105.393 Y37.572 E9.78807
G1 X106.118 Y37.093 E9.81697
G1 X106.487 Y36.869 E9.83133
G1 X106.813 Y36.679 E9.84388
G1 X107.284 Y36.414 E9.86185
G1 X108.086 Y36.003 E9.89183
G1 X108.503 Y35.81 E9.90711
G1 X108.838 Y35.662 E9.91929
G1 X109.281 Y35.474 E9.9353
G1 X109.824 Y35.259 E9.95472
G1 X110.013 Y35.19 E9.96141
G1 X110.346 Y35.075 E9.97313
G1 X110.576 Y34.999 E9.98119
G1 X110.846 Y34.913 E9.99061
G1 X111.354 Y34.759 E10.00827
G1 X112.278 Y34.521 E10.04
G1 X113.102 Y34.376 E10.06783
G1 X113.341 Y34.343 E10.07586
G1 X114.291 Y34.252 E10.1076
G1 X115.246 Y34.241 E10.13936
G1 X115.897 Y34.28 E10.16106
G1 X116.709 Y34.351 E10.18817
G1 X119.373 Y34.552 E10.27702
G1 X121.85 Y34.67 E10.3595
G1 X124.378 Y34.717 E10.4436
G1 X126.843 Y34.694 E10.52559
G1 X129.387 Y34.597 E10.61026
G1 X131.818 Y34.437 E10.69129
G1 X135.682 Y34.048 E10.82046
G1 X136.145 Y34.011 E10.83591
G1 X136.363 Y33.998 E10.84317
G1 X136.908 Y33.979 E10.86131
G1 X137.249 Y33.975 E10.87265
G1 X137.38 Y33.974 E10.87701
G1 X154.229 Y33.97 E11.43741
G1 X154.394 Y33.971 E11.4429
G1 X155.237 Y33.983 E11.47094
G1 X155.806 Y34.005 E11.48988
G1 X156.631 Y34.058 E11.51737
G1 X157.603 Y34.163 E11.54989
G1 X158.02 Y34.226 E11.56392
G1 X158.355 Y34.282 E11.57521
G1 X158.911 Y34.383 E11.59401
G1 X159.817 Y34.586 E11.62489
G1 X160.251 Y34.702 E11.63983
G1 X160.606 Y34.803 E11.65211
G1 X161.122 Y34.959 E11.67004
G1 X161.73 Y35.162 E11.69136
G1 X161.952 Y35.243 E11.69922
G1 X162.509 Y35.462 E11.71912
G1 X163.033 Y35.685 E11.73806
G1 X163.711 Y36.001 E11.76294
G1 X164.362 Y36.33 E11.7872
G1 X164.867 Y36.601 E11.80627
G1 X165.209 Y36.796 E11.81936
G1 X165.732 Y37.113 E11.8397
G1 X165.92 Y37.234 E11.84714
G1 X166.222 Y37.435 E11.8592
G1 X166.512 Y37.635 E11.87092
G1 X166.737 Y37.795 E11.8801
G1 X167.018 Y37.999 E11.89165
G1 X167.739 Y38.568 E11.9222
G1 X168.403 Y39.137 E11.95128
G1 X169.222 Y39.912 E11.98879
G1 X169.863 Y40.582 E12.01963
G1 X170.353 Y41.128 E12.04403
G1 X170.606 Y41.429 E12.05711
G1 X170.991 Y41.913 E12.07768
G1 X171.188 Y42.175 E12.08858
G1 X171.461 Y42.555 E12.10414
G1 X171.743 Y42.964 E12.12066
G1 X172.209 Y43.697 E12.14955
G1 X172.548 Y44.279 E12.17196
G1 X172.759 Y44.657 E12.18635
G1 X172.979 Y45.07 E12.20192
G1 X173.393 Y45.933 E12.23375
G1 X173.575 Y46.357 E12.2491
G1 X173.696 Y46.651 E12.25967
G1 X173.886 Y47.13 E12.27681
G1 X174.192 Y48.002 E12.30755
G1 X174.331 Y48.457 E12.32337
G1 X174.427 Y48.79 E12.3349
G1 X174.563 Y49.289 E12.3521
G1 X174.781 Y50.252 E12.38494
G1 X174.867 Y50.726 E12.40097
G1 X174.916 Y51.021 E12.41091
G1 X174.994 Y51.526 E12.42791
G1 X175.098 Y52.44 E12.4585
G1 X175.132 Y52.908 E12.47411
G1 X175.152 Y53.26 E12.48584
G1 X175.175 Y53.813 E12.50424
G1 X175.184 Y54.128 E12.51473
G1 X175.193 Y54.772 E12.53615
G1 X175.194 Y54.931 E12.54144
G1 X175.194 Y97.406 E13.95416
G1 X175.193 Y97.563 E13.95938
G1 X175.183 Y98.29 E13.98356
G1 X175.13 Y99.243 E14.01531
G1 X174.997 Y100.189 E14.04708
G1 X174.786 Y101.12 E14.07883
G1 X174.497 Y102.03 E14.11059
G1 X174.134 Y102.913 E14.14234
G1 X173.697 Y103.762 E14.1741
G1 X173.192 Y104.572 E14.20585
G1 X172.62 Y105.336 E14.23759
G1 X171.986 Y106.05 E14.26935
G1 X171.295 Y106.709 E14.30111
G1 X170.551 Y107.307 E14.33286
G1 X169.759 Y107.842 E14.36465
G1 X168.926 Y108.307 E14.39638
G1 X168.057 Y108.702 E14.42813
G1 X167.157 Y109.023 E14.45991
G1 X166.234 Y109.267 E14.49166
G1 X165.294 Y109.433 E14.52341
G1 X164.104 Y109.528 E14.56312
G1 X163.784 Y109.537 E14.57376
G1 X163.464 Y109.542 E14.58441
G1 X108.729 Y109.542 E16.4049
G1 X108.582 Y109.541 E16.40979
G1 X107.884 Y109.532 E16.43301
G1 X106.931 Y109.48 E16.46475
G1 X105.985 Y109.348 E16.49652
G1 X105.054 Y109.137 E16.52827
G1 X104.143 Y108.85 E16.56004
G1 X103.26 Y108.487 E16.59179
G1 X102.411 Y108.051 E16.62354
G1 X101.6 Y107.546 E16.65531
G1 X100.835 Y106.975 E16.68706
G1 X100.121 Y106.342 E16.7188
G1 X99.461 Y105.651 E16.75058
G1 X98.862 Y104.908 E16.78233
G1 X98.328 Y104.117 E16.81407
G1 X97.861 Y103.284 E16.84583
G1 X97.466 Y102.415 E16.87758
G1 X97.144 Y101.516 E16.90934
G1 X96.9 Y100.593 E16.94109
G1 X96.733 Y99.653 E16.97285
G1 X96.635 Y98.441 E17.01329
G1 X96.626 Y98.108 E17.02437
G1 X96.622 Y97.8 E17.03462
G1 X96.621 Y58.66 E18.33642
G1 X96.621 Y58.645 E18.33692
G1 X96.626 Y54.864 E18.46267
G1 X96.627 Y54.699 E18.46816
G1 X96.639 Y53.941 E18.49338
G1 X96.648 Y53.636 E18.50352
G1 X96.664 Y53.26 E18.51604
G1 X96.682 Y52.952 E18.5263
G1 X96.714 Y52.493 E18.54161
G1 X96.799 Y51.682 E18.56873
G1 X96.855 Y51.288 E18.58196
G1 X96.922 Y50.877 E18.59581
G1 X96.996 Y50.465 E18.60974
G1 X97.139 Y49.785 E18.63285
G1 X97.285 Y49.185 E18.65339
G1 X97.429 Y48.649 E18.67185
G1 X97.528 Y48.314 E18.68347
G1 X97.754 Y47.63 E18.70742
G1 X97.988 Y46.99 E18.73009
G1 X98.192 Y46.473 E18.74858
G1 X98.21 Y46.431 E18.7501
G0 F1350 X98.365 Y46.063
G0 F7500 X98.733 Y46.219
G1 F1500 X99.101 Y45.436 E18.77887
G1 X99.346 Y44.963 E18.79659
G1 X99.494 Y44.686 E18.80703
G1 X99.702 Y44.311 E18.8213
G1 X100.162 Y43.555 E18.85073
G1 X100.442 Y43.134 E18.86755
G1 X100.798 Y42.631 E18.88804
G1 X101.261 Y42.013 E18.91373
G1 X101.801 Y41.347 E18.94224
G1 X102.163 Y40.935 E18.96048
G1 X102.807 Y40.262 E18.99147
G1 X103.436 Y39.658 E19.02047
G1 X103.721 Y39.393 E19.03341
G1 X103.92 Y39.215 E19.04229
G1 X104.587 Y38.665 E19.07105
G1 X104.961 Y38.38 E19.08669
G1 X105.22 Y38.188 E19.09741
G1 X105.626 Y37.897 E19.11402
G1 X106.326 Y37.435 E19.14192
G1 X106.695 Y37.211 E19.15628
G1 X107.009 Y37.027 E19.16838
G1 X107.48 Y36.762 E19.18636
G1 X108.254 Y36.366 E19.21527
G1 X108.671 Y36.173 E19.23056
G1 X108.994 Y36.03 E19.24231
G1 X109.437 Y35.842 E19.25831
G1 X109.962 Y35.635 E19.27708
G1 X110.151 Y35.566 E19.28377
G1 X110.472 Y35.454 E19.29508
G1 X110.702 Y35.378 E19.30314
G1 X110.962 Y35.296 E19.31221
G1 X111.47 Y35.142 E19.32986
G1 X112.378 Y34.909 E19.36104
G1 X113.156 Y34.772 E19.38731
G1 X113.395 Y34.739 E19.39534
G1 X114.329 Y34.651 E19.42654
G1 X115.267 Y34.642 E19.45774
G1 X115.862 Y34.678 E19.47757
G1 X116.724 Y34.754 E19.50635
G1 X119.325 Y34.95 E19.5931
G1 X121.859 Y35.07 E19.67748
G1 X124.374 Y35.117 E19.76114
G1 X126.861 Y35.094 E19.84386
G1 X129.393 Y34.998 E19.92814
G1 X131.856 Y34.835 E20.01024
G1 X135.722 Y34.446 E20.13947
G1 X136.169 Y34.411 E20.15438
G1 X136.387 Y34.398 E20.16165
G1 X136.913 Y34.379 E20.17915
G1 X137.254 Y34.375 E20.1905
G1 X137.38 Y34.374 E20.19469
G1 X154.229 Y34.37 E20.75509
G1 X154.389 Y34.371 E20.76041
G1 X155.232 Y34.383 E20.78845
G1 X155.78 Y34.405 E20.80669
G1 X156.605 Y34.458 E20.83419
G1 X157.543 Y34.558 E20.86556
G1 X157.96 Y34.621 E20.87959
G1 X158.283 Y34.675 E20.89048
G1 X158.839 Y34.776 E20.90928
G1 X159.713 Y34.972 E20.93907
G1 X160.147 Y35.088 E20.95401
G1 X160.49 Y35.186 E20.96587
G1 X161.006 Y35.342 E20.9838
G1 X161.593 Y35.537 E21.00438
G1 X161.815 Y35.618 E21.01224
G1 X162.352 Y35.83 E21.03144
G1 X162.876 Y36.053 E21.05038
G1 X163.531 Y36.358 E21.07441
G1 X164.182 Y36.687 E21.09867
G1 X164.668 Y36.948 E21.11702
G1 X165.01 Y37.143 E21.13011
G1 X165.515 Y37.449 E21.14975
G1 X165.703 Y37.57 E21.15719
G1 X165.995 Y37.765 E21.16887
G1 X166.285 Y37.965 E21.18058
G1 X166.502 Y38.118 E21.18942
G1 X166.783 Y38.322 E21.20096
G1 X167.479 Y38.871 E21.23045
G1 X168.143 Y39.44 E21.25953
G1 X168.933 Y40.189 E21.29574
G1 X169.574 Y40.859 E21.32658
G1 X170.047 Y41.385 E21.35011
G1 X170.3 Y41.686 E21.36319
G1 X170.671 Y42.153 E21.38302
G1 X170.868 Y42.415 E21.39393
G1 X171.132 Y42.782 E21.40896
G1 X171.414 Y43.191 E21.42549
G1 X171.863 Y43.899 E21.45337
G1 X172.202 Y44.481 E21.47577
G1 X172.405 Y44.845 E21.48964
G1 X172.625 Y45.258 E21.5052
G1 X173.025 Y46.091 E21.53593
G1 X173.207 Y46.515 E21.55128
G1 X173.324 Y46.798 E21.56147
G1 X173.514 Y47.277 E21.5786
G1 X173.809 Y48.119 E21.60828
G1 X173.948 Y48.574 E21.6241
G1 X174.041 Y48.896 E21.63525
G1 X174.177 Y49.395 E21.65245
G1 X174.387 Y50.323 E21.6841
G1 X174.473 Y50.797 E21.70012
G1 X174.521 Y51.082 E21.70973
G1 X174.599 Y51.587 E21.72673
G1 X174.699 Y52.469 E21.75625
G1 X174.733 Y52.937 E21.77186
G1 X174.752 Y53.277 E21.78318
G1 X174.775 Y53.83 E21.80159
G1 X174.784 Y54.133 E21.81168
G1 X174.793 Y54.777 E21.8331
G1 X174.794 Y54.931 E21.83822
G1 X174.794 Y97.406 E23.25094
G1 X174.793 Y97.557 E23.25597
G1 X174.783 Y98.284 E23.28015
G1 X174.73 Y99.221 E23.31136
G1 X174.598 Y100.149 E23.34254
G1 X174.387 Y101.063 E23.37374
G1 X174.098 Y101.955 E23.40492
G1 X173.735 Y102.82 E23.43613
G1 X173.3 Y103.651 E23.46732
G1 X172.795 Y104.441 E23.49851
G1 X172.225 Y105.186 E23.52971
G1 X171.594 Y105.88 E23.5609
G1 X170.905 Y106.517 E23.59211
G1 X170.165 Y107.093 E23.6233
G1 X169.379 Y107.604 E23.65449
G1 X168.552 Y108.046 E23.68567
G1 X167.69 Y108.416 E23.71687
G1 X166.8 Y108.711 E23.74806
G1 X165.888 Y108.93 E23.77925
G1 X164.961 Y109.07 E23.81044
